; generated by Slic3r 1.1.6 on 2014-11-27 at 11:56:22

; perimeters extrusion width = 0.50mm
; infill extrusion width = 0.52mm
; solid infill extrusion width = 0.52mm
; top infill extrusion width = 0.52mm

G21 ; set units to millimeters
M107
M104 S200 ; set temperature
G28 ; home all axes
G1 Z5 F5000 ; lift nozzle

M109 S200 ; wait for temperature to be reached
G90 ; use absolute coordinates
G92 E0
M82 ; use absolute distances for extrusion
G1 F1800.000 E-1.00000
G92 E0
G1 Z0.350 F7800.000
G1 X35.179 Y32.089 F7800.000
G1 E1.00000 F1800.000
G1 X36.144 Y31.072 E1.04559 F1080.000
G1 X36.998 Y30.308 E1.08289
G1 X38.362 Y29.294 E1.13818
G1 X38.975 Y28.933 E1.16133
G1 X40.210 Y28.258 E1.20712
G1 X41.642 Y27.594 E1.25848
G1 X42.759 Y27.209 E1.29692
G1 X43.695 Y26.993 E1.32818
G1 X46.180 Y26.628 E1.40990
G1 X47.304 Y26.594 E1.44649
G1 X72.553 Y26.552 E2.26798
G1 X89.113 Y26.566 E2.80676
G1 X90.120 Y26.638 E2.83959
G1 X91.718 Y26.867 E2.89213
G1 X92.444 Y27.058 E2.91655
G1 X93.813 Y27.493 E2.96327
G1 X95.163 Y27.982 E3.00999
G1 X96.318 Y28.526 E3.05155
G1 X97.479 Y29.204 E3.09528
G1 X98.571 Y29.969 E3.13865
G1 X100.432 Y31.666 E3.22060
G1 X102.032 Y33.671 E3.30405
G1 X102.430 Y34.364 E3.33005
G1 X103.637 Y36.752 E3.41711
G1 X104.147 Y38.111 E3.46434
G1 X104.390 Y39.091 E3.49718
G1 X104.647 Y40.477 E3.54304
G1 X104.758 Y41.550 E3.57814
G1 X104.818 Y42.684 E3.61510
G1 X104.824 Y106.256 E5.68342
G1 X104.797 Y149.620 E7.09427
G1 X104.707 Y150.878 E7.13532
G1 X104.307 Y153.197 E7.21187
G1 X103.864 Y154.639 E7.26094
G1 X103.375 Y155.894 E7.30479
G1 X102.853 Y156.985 E7.34411
G1 X102.615 Y157.389 E7.35937
G1 X101.387 Y159.227 E7.43129
G1 X99.699 Y161.066 E7.51252
G1 X99.262 Y161.432 E7.53105
G1 X97.933 Y162.451 E7.58555
G1 X96.685 Y163.290 E7.63445
G1 X95.621 Y163.869 E7.67388
G1 X95.010 Y164.131 E7.69551
G1 X93.172 Y164.804 E7.75919
G1 X92.052 Y165.069 E7.79665
G1 X90.861 Y165.280 E7.83598
G1 X88.685 Y165.457 E7.90702
G1 X53.038 Y165.457 E9.06680
G1 X46.809 Y165.433 E9.26946
G1 X44.278 Y165.156 E9.35230
G1 X42.007 Y164.528 E9.42897
G1 X41.443 Y164.310 E9.44864
G1 X39.645 Y163.497 E9.51285
G1 X38.241 Y162.660 E9.56601
G1 X37.352 Y161.998 E9.60208
G1 X35.635 Y160.423 E9.67789
G1 X34.338 Y158.911 E9.74271
G1 X34.024 Y158.470 E9.76032
G1 X33.735 Y158.009 E9.77801
G1 X32.734 Y156.157 E9.84653
G1 X31.845 Y153.795 E9.92862
G1 X31.334 Y151.319 E10.01088
G1 X31.224 Y149.319 E10.07606
G1 X31.183 Y74.903 E12.49719
G1 X31.198 Y42.321 E13.55727
G1 X31.254 Y41.438 E13.58603
G1 X31.452 Y39.853 E13.63802
G1 X31.695 Y38.732 E13.67532
G1 X32.100 Y37.360 E13.72187
G1 X32.513 Y36.326 E13.75810
G1 X33.088 Y35.126 E13.80138
G1 X33.594 Y34.235 E13.83473
G1 X34.580 Y32.784 E13.89180
G1 X35.130 Y32.146 E13.91921
G1 F1800.000 E12.91921
G92 E0
G1 X60.334 Y93.655 F7800.000
G1 E1.00000 F1800.000
G1 X50.333 Y93.655 E1.32537 F540.000
G1 X50.333 Y77.210 E1.86041
G1 X59.092 Y72.482 E2.18425
G1 X67.440 Y71.322 E2.45848
G1 X72.924 Y71.852 E2.63772
G1 X77.413 Y73.486 E2.79315
G1 X80.952 Y76.249 E2.93925
G1 X83.764 Y80.345 E3.10087
G1 X81.491 Y80.784 E3.17621
G1 X81.068 Y81.060 E3.19263
G1 X80.794 Y81.459 E3.20837
G1 X80.701 Y81.915 E3.22353
G1 X81.198 Y84.354 E3.30450
G1 X79.491 Y84.684 E3.36106
G1 X79.067 Y84.960 E3.37753
G1 X78.794 Y85.358 E3.39322
G1 X78.701 Y85.815 E3.40839
G1 X78.794 Y86.273 E3.42358
G1 X79.817 Y87.766 E3.48245
G1 X78.794 Y89.258 E3.54132
G1 X78.701 Y89.715 E3.55649
G1 X78.794 Y90.173 E3.57168
G1 X79.817 Y91.665 E3.63055
G1 X78.794 Y93.158 E3.68942
G1 X78.701 Y93.615 E3.70459
G1 X78.794 Y94.073 E3.71978
G1 X79.067 Y94.470 E3.73545
G1 X79.491 Y94.746 E3.75192
G1 X81.198 Y95.078 E3.80849
G1 X80.701 Y97.516 E3.88944
G1 X80.794 Y97.972 E3.90458
G1 X81.067 Y98.370 E3.92029
G1 X83.294 Y99.821 E4.00676
G1 X80.431 Y103.589 E4.16074
G1 X76.405 Y106.387 E4.32025
G1 X72.238 Y107.693 E4.46232
G1 X71.092 Y107.785 E4.49971
G1 X71.092 Y109.314 E4.54946
G1 X75.022 Y113.243 E4.73024
G1 X70.243 Y118.022 E4.95012
G1 X63.644 Y111.421 E5.25379
G1 X64.333 Y110.732 E5.28551
G1 X64.333 Y107.962 E5.37563
G1 X62.287 Y107.852 E5.44230
G1 X58.697 Y107.046 E5.56201
G1 X55.945 Y105.604 E5.66309
G1 X53.632 Y103.474 E5.76538
G1 X49.955 Y96.046 E6.03503
G1 X60.377 Y94.133 E6.37979
G1 X60.340 Y93.730 E6.39297
G1 F1800.000 E5.39297
G92 E0
G1 X61.514 Y84.256 F7800.000
G1 E1.00000 F1800.000
G1 X68.010 Y84.256 E1.21135 F540.000
G1 X68.010 Y92.998 E1.49578
G1 X50.990 Y92.998 E2.04953
G1 X50.990 Y77.602 E2.55044
G1 X59.299 Y73.117 E2.85767
G1 X67.454 Y71.983 E3.12552
G1 X72.777 Y72.498 E3.29953
G1 X77.090 Y74.068 E3.44886
G1 X80.468 Y76.705 E3.58828
G1 X82.655 Y79.890 E3.71398
G1 X81.240 Y80.163 E3.76087
G1 X80.600 Y80.580 E3.78573
G1 X80.177 Y81.197 E3.81004
G1 X80.031 Y81.915 E3.83389
G1 X80.422 Y83.835 E3.89763
G1 X79.240 Y84.063 E3.93679
G1 X78.599 Y84.481 E3.96169
G1 X78.177 Y85.097 E3.98596
G1 X78.031 Y85.815 E4.00981
G1 X78.177 Y86.534 E4.03369
G1 X79.020 Y87.766 E4.08224
G1 X78.177 Y88.997 E4.13080
G1 X78.031 Y89.715 E4.15465
G1 X78.177 Y90.434 E4.17853
G1 X79.020 Y91.665 E4.22708
G1 X78.177 Y92.897 E4.27564
G1 X78.031 Y93.615 E4.29949
G1 X78.177 Y94.334 E4.32337
G1 X78.599 Y94.949 E4.34763
G1 X79.240 Y95.367 E4.37252
G1 X80.422 Y95.596 E4.41169
G1 X80.031 Y97.516 E4.47542
G1 X80.177 Y98.234 E4.49926
G1 X80.599 Y98.849 E4.52355
G1 X82.344 Y99.986 E4.59128
G1 X79.970 Y103.109 E4.71890
G1 X76.112 Y105.790 E4.87175
G1 X72.112 Y107.044 E5.00816
G1 X70.435 Y107.179 E5.06288
G1 X70.435 Y109.587 E5.14120
G1 X74.092 Y113.243 E5.30946
G1 X70.243 Y117.092 E5.48658
G1 X64.573 Y111.421 E5.74750
G1 X64.990 Y111.004 E5.76669
G1 X64.990 Y107.339 E5.88593
G1 X62.377 Y107.199 E5.97107
G1 X58.925 Y106.424 E6.08618
G1 X56.326 Y105.063 E6.18163
G1 X54.167 Y103.073 E6.27714
G1 X50.930 Y96.535 E6.51449
G1 X62.248 Y94.458 E6.88889
G1 X64.372 Y97.492 E7.00939
G1 X67.319 Y98.303 E7.10884
G1 X69.724 Y97.824 E7.18862
G1 X71.570 Y96.402 E7.26443
G1 X72.814 Y93.824 E7.35757
G1 X73.257 Y89.827 E7.48840
G1 X72.808 Y85.608 E7.62643
G1 X71.553 Y82.991 E7.72085
G1 X69.645 Y81.589 E7.79789
G1 X66.989 Y81.099 E7.88575
G1 X64.200 Y81.536 E7.97758
G1 X61.514 Y82.847 E8.07484
G1 X61.514 Y84.181 E8.11824
G1 X60.857 Y84.913 F7800.000
G1 X67.353 Y84.913 E8.32959 F378.000
G1 X67.353 Y92.341 E8.57126
G1 X51.647 Y92.341 E9.08226
G1 X51.647 Y77.994 E9.54904
G1 X59.507 Y73.751 E9.83966
G1 X67.468 Y72.645 E10.10114
G1 X72.631 Y73.144 E10.26991
G1 X76.768 Y74.650 E10.41314
G1 X79.984 Y77.160 E10.54588
G1 X81.546 Y79.435 E10.63565
G1 X80.989 Y79.543 E10.65411
G1 X80.131 Y80.101 E10.68740
G1 X79.560 Y80.935 E10.72030
G1 X79.360 Y81.915 E10.75282
G1 X79.645 Y83.316 E10.79933
G1 X78.989 Y83.443 E10.82109
G1 X78.130 Y84.002 E10.85442
G1 X77.560 Y84.835 E10.88728
G1 X77.360 Y85.815 E10.91981
G1 X77.560 Y86.796 E10.95237
G1 X78.224 Y87.766 E10.99061
G1 X77.560 Y88.735 E11.02886
G1 X77.360 Y89.715 E11.06139
G1 X77.560 Y90.696 E11.09395
G1 X78.224 Y91.665 E11.13219
G1 X77.560 Y92.635 E11.17044
G1 X77.360 Y93.615 E11.20297
G1 X77.560 Y94.596 E11.23553
G1 X78.130 Y95.429 E11.26838
G1 X78.989 Y95.987 E11.30170
G1 X79.645 Y96.115 E11.32346
G1 X79.360 Y97.516 E11.36998
G1 X79.560 Y98.496 E11.40251
G1 X80.131 Y99.329 E11.43538
G1 X81.393 Y100.151 E11.48437
G1 X79.510 Y102.629 E11.58563
G1 X75.820 Y105.193 E11.73183
G1 X71.985 Y106.395 E11.86257
G1 X69.778 Y106.573 E11.93462
G1 X69.778 Y109.859 E12.04152
G1 X73.163 Y113.243 E12.19725
G1 X70.243 Y116.163 E12.33161
G1 X65.502 Y111.421 E12.54977
G1 X65.647 Y111.276 E12.55644
G1 X65.647 Y106.716 E12.70481
G1 X62.467 Y106.546 E12.80842
G1 X59.153 Y105.801 E12.91892
G1 X56.708 Y104.521 E13.00874
G1 X54.702 Y102.672 E13.09747
G1 X51.905 Y97.025 E13.30252
G1 X61.952 Y95.180 E13.63485
G1 X63.969 Y98.063 E13.74933
G1 X67.295 Y98.978 E13.86154
G1 X70.003 Y98.439 E13.95138
G1 X72.094 Y96.827 E14.03726
G1 X73.455 Y94.008 E14.13912
G1 X73.918 Y89.828 E14.27594
G1 X73.449 Y85.426 E14.41997
G1 X72.074 Y82.559 E14.52342
G1 X69.912 Y80.971 E14.61070
G1 X66.998 Y80.433 E14.70712
G1 X64.001 Y80.902 E14.80581
G1 X60.857 Y82.437 E14.91965
G1 X60.857 Y84.838 E14.99778
G1 X61.290 Y84.663 F7800.000
G1 X68.667 Y83.599 F7800.000
G1 X62.400 Y83.599 E15.20167 F540.000
G1 X62.306 Y83.192 E15.21527
G1 X64.400 Y82.169 E15.29107
G1 X66.980 Y81.766 E15.37604
G1 X69.377 Y82.208 E15.45536
G1 X71.031 Y83.424 E15.52214
G1 X72.167 Y85.790 E15.60753
G1 X72.596 Y89.825 E15.73956
G1 X72.173 Y93.639 E15.86440
G1 X71.045 Y95.976 E15.94883
G1 X69.445 Y97.210 E16.01458
G1 X67.344 Y97.628 E16.08428
G1 X64.775 Y96.921 E16.17097
G1 X62.489 Y93.655 E16.30068
G1 X68.667 Y93.655 E16.50170
G1 X68.667 Y83.674 E16.82644
G1 F1800.000 E15.82644
G92 E0
G1 X96.112 Y144.473 F7800.000
G1 E1.00000 F1800.000
G1 X95.687 Y143.838 E1.02486 F540.000
G1 X95.262 Y143.413 E1.04441
G1 X94.973 Y143.211 E1.05590
G1 X93.331 Y141.790 E1.12655
G1 X91.800 Y141.076 E1.18151
G1 X91.132 Y140.897 E1.20399
G1 X90.194 Y140.700 E1.23518
G1 X88.723 Y140.579 E1.28319
G1 X80.333 Y140.579 E1.55616
G1 X78.809 Y140.654 E1.60581
G1 X77.792 Y140.967 E1.64043
G1 X77.272 Y141.107 E1.65796
G1 X75.846 Y141.787 E1.70935
G1 X74.492 Y142.668 E1.76192
G1 X73.380 Y143.834 E1.81435
G1 X72.480 Y145.139 E1.86590
G1 X72.203 Y145.745 E1.88760
G1 X71.970 Y146.178 E1.90358
G1 X71.782 Y146.635 E1.91966
G1 X71.393 Y148.119 E1.96957
G1 X71.374 Y148.338 E1.97673
G1 X71.263 Y148.775 E1.99142
G1 X71.232 Y150.277 E2.04027
G1 X71.393 Y152.098 E2.09977
G1 X71.779 Y153.588 E2.14984
G1 X71.983 Y154.114 E2.16819
G1 X72.348 Y155.176 E2.20474
G1 X73.185 Y156.119 E2.24574
G1 X73.389 Y156.416 E2.25746
G1 X74.140 Y157.136 E2.29131
G1 X47.381 Y157.132 E3.16191
G1 X46.103 Y157.034 E3.20362
G1 X44.898 Y156.725 E3.24410
G1 X44.605 Y156.612 E3.25431
G1 X43.757 Y156.262 E3.28416
G1 X42.770 Y155.678 E3.32146
G1 X42.008 Y154.976 E3.35517
G1 X41.758 Y154.786 E3.36539
G1 X41.042 Y153.977 E3.40054
G1 X40.907 Y153.790 E3.40803
G1 X40.382 Y152.875 E3.44238
G1 X39.905 Y151.723 E3.48293
G1 X39.619 Y150.534 E3.52273
G1 X39.545 Y149.268 E3.56397
G1 X39.504 Y74.904 E5.98343
G1 X39.509 Y42.731 E7.03019
G1 X39.535 Y42.258 E7.04560
G1 X39.621 Y41.440 E7.07235
G1 X39.748 Y40.826 E7.09276
G1 X39.895 Y40.274 E7.11134
G1 X40.099 Y39.745 E7.12977
G1 X40.373 Y39.147 E7.15117
G1 X40.991 Y38.091 E7.19101
G1 X41.803 Y37.173 E7.23087
G1 X42.287 Y36.733 E7.25214
G1 X42.703 Y36.394 E7.26962
G1 X43.798 Y35.766 E7.31067
G1 X44.908 Y35.248 E7.35053
G1 X45.170 Y35.182 E7.35931
G1 X46.572 Y34.941 E7.40561
G1 X47.344 Y34.915 E7.43074
G1 X72.555 Y34.874 E8.25097
G1 X88.631 Y34.874 E8.77403
G1 X89.247 Y34.913 E8.79411
G1 X89.879 Y34.983 E8.81479
G1 X90.000 Y35.012 E8.81884
G1 X91.054 Y35.344 E8.85480
G1 X92.016 Y35.686 E8.88801
G1 X92.227 Y35.773 E8.89544
G1 X93.265 Y36.381 E8.93459
G1 X94.195 Y37.175 E8.97435
G1 X94.989 Y38.104 E9.01412
G1 X96.006 Y40.310 E9.09316
G1 X96.153 Y40.439 E9.09952
G1 X96.371 Y41.403 E9.13166
G1 X96.377 Y41.559 E9.13676
G1 X96.458 Y42.146 E9.15605
G1 X96.496 Y42.739 E9.17536
G1 X96.503 Y106.253 E11.24180
G1 X96.485 Y144.360 E12.48162
G1 X96.184 Y144.451 E12.49185
G1 X96.739 Y146.911 F7800.000
G1 X96.227 Y145.912 E12.52837 F540.000
G1 X96.014 Y145.457 E12.54472
G1 X95.579 Y144.858 E12.56880
G1 X95.177 Y144.257 E12.59232
G1 X94.838 Y143.918 E12.60791
G1 X94.568 Y143.730 E12.61862
G1 X92.970 Y142.347 E12.68739
G1 X91.574 Y141.696 E12.73749
G1 X90.979 Y141.536 E12.75753
G1 X90.099 Y141.351 E12.78679
G1 X88.696 Y141.236 E12.83259
G1 X80.362 Y141.236 E13.10376
G1 X78.924 Y141.306 E13.15060
G1 X77.498 Y141.727 E13.19897
G1 X76.170 Y142.360 E13.24683
G1 X74.917 Y143.175 E13.29545
G1 X73.888 Y144.255 E13.34400
G1 X73.051 Y145.469 E13.39197
G1 X72.793 Y146.036 E13.41222
G1 X72.565 Y146.459 E13.42788
G1 X72.408 Y146.840 E13.44127
G1 X72.043 Y148.236 E13.48823
G1 X72.024 Y148.448 E13.49514
G1 X71.918 Y148.864 E13.50913
G1 X71.890 Y150.264 E13.55467
G1 X72.043 Y151.986 E13.61093
G1 X72.406 Y153.386 E13.65799
G1 X72.600 Y153.888 E13.67550
G1 X72.927 Y154.838 E13.70819
G1 X73.703 Y155.713 E13.74624
G1 X73.892 Y155.988 E13.75710
G1 X74.495 Y156.566 E13.78425
G1 X74.542 Y156.669 E13.78795
G1 X74.943 Y157.071 E13.80642
G1 X75.491 Y157.421 E13.82757
G1 X75.377 Y157.793 E13.84023
G1 X47.355 Y157.789 E14.75194
G1 X45.995 Y157.685 E14.79630
G1 X44.698 Y157.352 E14.83989
G1 X44.362 Y157.223 E14.85161
G1 X43.464 Y156.851 E14.88322
G1 X42.363 Y156.196 E14.92490
G1 X41.585 Y155.480 E14.95930
G1 X41.309 Y155.269 E14.97061
G1 X40.521 Y154.380 E15.00925
G1 X40.367 Y154.169 E15.01775
G1 X39.791 Y153.165 E15.05542
G1 X39.278 Y151.927 E15.09903
G1 X38.968 Y150.637 E15.14218
G1 X38.888 Y149.287 E15.18619
G1 X38.847 Y74.904 E17.60625
G1 X38.852 Y42.713 E18.65360
G1 X38.880 Y42.203 E18.67022
G1 X38.969 Y41.347 E18.69821
G1 X39.109 Y40.675 E18.72055
G1 X39.269 Y40.070 E18.74089
G1 X39.493 Y39.490 E18.76114
G1 X39.787 Y38.849 E18.78408
G1 X40.458 Y37.703 E18.82728
G1 X41.338 Y36.708 E18.87050
G1 X41.858 Y36.235 E18.89336
G1 X42.327 Y35.853 E18.91304
G1 X43.497 Y35.182 E18.95693
G1 X44.596 Y34.666 E18.99644
G1 X45.034 Y34.539 E19.01126
G1 X46.505 Y34.286 E19.05984
G1 X47.333 Y34.258 E19.08678
G1 X72.554 Y34.217 E19.90736
G1 X88.653 Y34.217 E20.43113
G1 X89.305 Y34.259 E20.45238
G1 X89.992 Y34.334 E20.47489
G1 X90.176 Y34.378 E20.48103
G1 X91.263 Y34.721 E20.51813
G1 X92.252 Y35.072 E20.55228
G1 X92.520 Y35.183 E20.56170
G1 X93.653 Y35.848 E20.60444
G1 X94.661 Y36.709 E20.64757
G1 X95.523 Y37.717 E20.69071
G1 X95.596 Y37.838 E20.69532
G1 X96.543 Y39.907 E20.76937
G1 X96.713 Y40.055 E20.77668
G1 X96.752 Y40.128 E20.77937
G1 X96.890 Y40.670 E20.79756
G1 X97.026 Y41.324 E20.81932
G1 X97.032 Y41.503 E20.82513
G1 X97.112 Y42.080 E20.84408
G1 X97.153 Y42.717 E20.86487
G1 X97.160 Y106.253 E22.93200
G1 X97.141 Y146.814 E24.25168
G1 X96.811 Y146.894 E24.26270
G1 F1800.000 E23.26270
G92 E0
G1 X95.058 Y155.041 F7800.000
G1 E1.00000 F1800.000
G1 X95.513 Y154.474 E1.02365 F378.000
G1 X96.015 Y153.193 E1.06842
G1 X96.377 Y151.869 E1.11309
G1 X96.490 Y150.524 E1.15699
G1 X96.498 Y149.703 E1.18371
G1 X96.360 Y148.357 E1.22771
G1 X96.057 Y147.022 E1.27228
G1 X95.445 Y145.792 E1.31697
G1 X95.040 Y145.234 E1.33938
G1 X94.667 Y144.677 E1.36123
G1 X94.414 Y144.424 E1.37286
G1 X94.164 Y144.249 E1.38279
G1 X92.609 Y142.903 E1.44968
G1 X91.349 Y142.316 E1.49493
G1 X90.827 Y142.176 E1.51251
G1 X90.005 Y142.003 E1.53984
G1 X88.669 Y141.893 E1.58343
G1 X80.390 Y141.893 E1.85280
G1 X79.038 Y141.959 E1.89685
G1 X77.723 Y142.347 E1.94144
G1 X76.493 Y142.933 E1.98577
G1 X75.343 Y143.682 E2.03043
G1 X74.396 Y144.676 E2.07510
G1 X73.622 Y145.799 E2.11948
G1 X73.383 Y146.326 E2.13830
G1 X73.159 Y146.741 E2.15364
G1 X73.034 Y147.045 E2.16434
G1 X72.692 Y148.354 E2.20835
G1 X72.675 Y148.558 E2.21500
G1 X72.574 Y148.953 E2.22829
G1 X72.547 Y150.251 E2.27052
G1 X72.693 Y151.874 E2.32354
G1 X73.033 Y153.185 E2.36760
G1 X73.218 Y153.663 E2.38426
G1 X73.506 Y154.501 E2.41309
G1 X74.222 Y155.308 E2.44820
G1 X74.396 Y155.561 E2.45818
G1 X74.945 Y156.087 E2.48294
G1 X75.051 Y156.203 E2.48804
G1 X75.090 Y156.288 E2.49109
G1 X75.354 Y156.552 E2.50322
G1 X76.495 Y157.305 E2.54771
G1 X77.721 Y157.889 E2.59190
G1 X78.121 Y157.989 E2.60531
G1 X78.064 Y158.450 E2.62043
G1 X47.329 Y158.446 E3.62041
G1 X45.888 Y158.336 E3.66743
G1 X44.498 Y157.979 E3.71413
G1 X44.118 Y157.833 E3.72735
G1 X43.170 Y157.441 E3.76072
G1 X42.123 Y156.826 E3.80023
G1 X41.955 Y156.714 E3.80679
G1 X41.162 Y155.984 E3.84187
G1 X40.859 Y155.753 E3.85428
G1 X40.001 Y154.783 E3.89640
G1 X39.805 Y154.508 E3.90740
G1 X39.200 Y153.456 E3.94690
G1 X38.651 Y152.130 E3.99357
G1 X38.317 Y150.740 E4.04008
G1 X38.231 Y149.305 E4.08686
G1 X38.190 Y74.904 E6.50751
G1 X38.195 Y42.695 E7.55545
G1 X38.225 Y42.148 E7.57328
G1 X38.317 Y41.254 E7.60250
G1 X38.469 Y40.523 E7.62678
G1 X38.643 Y39.867 E7.64888
G1 X38.888 Y39.234 E7.67094
G1 X39.201 Y38.550 E7.69542
G1 X39.572 Y37.891 E7.72004
G1 X39.925 Y37.316 E7.74200
G1 X40.873 Y36.243 E7.78857
G1 X41.429 Y35.737 E7.81304
G1 X41.950 Y35.312 E7.83490
G1 X43.195 Y34.597 E7.88162
G1 X44.494 Y33.997 E7.92816
G1 X44.897 Y33.896 E7.94170
G1 X46.438 Y33.630 E7.99256
