; generated by Slic3r 1.1.6 on 2014-11-27 at 11:55:20

; perimeters extrusion width = 0.50mm
; infill extrusion width = 0.52mm
; solid infill extrusion width = 0.52mm
; top infill extrusion width = 0.52mm

G21 ; set units to millimeters
M107
M104 S200 ; set temperature
G28 ; home all axes
G1 Z5 F5000 ; lift nozzle

M109 S200 ; wait for temperature to be reached
G90 ; use absolute coordinates
G92 E0
M82 ; use absolute distances for extrusion
G1 F1800.000 E-1.00000
G92 E0
G1 Z0.350 F7800.000
G1 X34.948 Y34.568 F7800.000
G1 E1.00000 F1800.000
G1 X36.068 Y33.526 E1.04976 F1080.000
G1 X37.445 Y32.459 E1.10644
G1 X39.093 Y31.523 E1.16811
G1 X51.719 Y26.644 E1.60850
G1 X53.107 Y26.455 E1.65408
G1 X137.953 Y23.877 E4.41584
G1 X141.046 Y24.008 E4.51656
G1 X144.272 Y24.404 E4.62229
G1 X147.165 Y24.980 E4.71826
G1 X150.148 Y25.813 E4.81904
G1 X153.062 Y26.873 E4.91993
G1 X156.015 Y28.222 E5.02555
G1 X158.598 Y29.644 E5.12149
G1 X161.191 Y31.339 E5.22228
G1 X163.649 Y33.228 E5.32314
G1 X165.954 Y35.300 E5.42398
G1 X168.189 Y37.656 E5.52962
G1 X170.054 Y39.940 E5.62558
G1 X171.825 Y42.480 E5.72633
G1 X173.400 Y45.154 E5.82727
G1 X174.762 Y47.934 E5.92800
G1 X175.955 Y50.956 E6.03372
G1 X176.831 Y53.774 E6.12973
G1 X177.524 Y56.791 E6.23044
G1 X177.997 Y60.006 E6.33616
G1 X178.209 Y62.947 E6.43210
G1 X178.196 Y66.047 E6.53295
G1 X177.924 Y69.283 E6.63859
G1 X177.460 Y72.193 E6.73448
G1 X176.740 Y75.213 E6.83548
G1 X175.739 Y78.299 E6.94105
G1 X174.622 Y81.030 E7.03705
G1 X173.237 Y83.798 E7.13775
G1 X171.640 Y86.460 E7.23874
G1 X169.848 Y88.984 E7.33947
G1 X167.764 Y91.475 E7.44513
G1 X165.706 Y93.593 E7.54121
G1 X163.386 Y95.643 E7.64193
G1 X160.913 Y97.511 E7.74277
G1 X158.176 Y99.256 E7.84839
G1 X155.579 Y100.652 E7.94432
G1 X152.742 Y101.909 E8.04526
G1 X149.825 Y102.943 E8.14594
G1 X146.686 Y103.782 E8.25166
G1 X143.789 Y104.329 E8.34758
G1 X140.708 Y104.672 E8.44844
G1 X137.609 Y104.777 E8.54932
G1 X134.517 Y104.646 E8.65001
G1 X53.496 Y96.360 E11.29979
G1 X52.292 Y96.123 E11.33974
G1 X44.029 Y93.630 E11.62054
G1 X33.780 Y89.113 E11.98493
G1 X31.871 Y87.832 E12.05973
G1 X30.837 Y86.562 E12.11302
G1 X23.657 Y75.105 E12.55293
G1 X22.710 Y72.533 E12.64209
G1 X21.028 Y61.032 E13.02028
G1 X21.256 Y58.099 E13.11599
G1 X24.790 Y46.731 E13.50330
G1 X25.176 Y45.709 E13.53883
G1 X26.286 Y43.805 E13.61055
G1 X27.130 Y42.813 E13.65294
G1 X34.896 Y34.622 E14.02016
G1 F1800.000 E13.02016
G92 E0
G1 X104.405 Y65.517 F7800.000
G1 E1.00000 F1800.000
G1 X104.406 Y63.045 E1.08041 F378.000
G1 X104.601 Y60.512 E1.16309
G1 X104.993 Y57.965 E1.24690
G1 X105.597 Y55.406 E1.33245
G1 X106.348 Y53.035 E1.41339
G1 X107.299 Y50.678 E1.49606
G1 X108.440 Y48.369 E1.57988
G1 X109.788 Y46.111 E1.66543
G1 X111.220 Y44.077 E1.74636
G1 X112.837 Y42.117 E1.82904
G1 X114.610 Y40.272 E1.91228
G1 X116.533 Y38.557 E1.99610
G1 X118.627 Y36.967 E2.08165
G1 X120.716 Y35.616 E2.16259
G1 X122.948 Y34.402 E2.24526
G1 X125.298 Y33.347 E2.32908
G1 X127.707 Y32.483 E2.41232
G1 X130.243 Y31.790 E2.49787
G1 X132.686 Y31.318 E2.57881
G1 X135.210 Y31.026 E2.66148
G1 X137.766 Y30.928 E2.74472
G1 X140.341 Y31.025 E2.82854
G1 X142.953 Y31.331 E2.91410
G1 X145.394 Y31.806 E2.99503
G1 X147.844 Y32.480 E3.07770
G1 X150.269 Y33.349 E3.16152
G1 X152.604 Y34.396 E3.24477
G1 X154.912 Y35.656 E3.33032
G1 X156.999 Y37.009 E3.41126
G1 X159.020 Y38.550 E3.49393
G1 X160.944 Y40.263 E3.57774
G1 X162.718 Y42.107 E3.66099
G1 X164.387 Y44.139 E3.74655
G1 X165.817 Y46.174 E3.82748
G1 X167.116 Y48.358 E3.91015
G1 X168.259 Y50.667 E3.99396
G1 X169.216 Y53.040 E4.07720
G1 X169.993 Y55.496 E4.16102
G1 X170.585 Y58.056 E4.24652
G1 X170.961 Y60.499 E4.32694
G1 X171.157 Y63.050 E4.41018
G1 X171.157 Y65.609 E4.49343
G1 X170.951 Y68.230 E4.57897
G1 X170.570 Y70.688 E4.65991
G1 X169.992 Y73.163 E4.74258
G1 X169.215 Y75.619 E4.82640
G1 X168.228 Y78.056 E4.91195
G1 X167.123 Y80.285 E4.99289
G1 X165.824 Y82.469 E5.07556
G1 X164.343 Y84.577 E5.15938
G1 X162.666 Y86.603 E5.24493
G1 X160.940 Y88.394 E5.32586
G1 X159.043 Y90.084 E5.40853
G1 X156.995 Y91.647 E5.49235
G1 X154.786 Y93.073 E5.57790
G1 X152.600 Y94.260 E5.65884
G1 X150.281 Y95.299 E5.74151
G1 X147.857 Y96.171 E5.82533
G1 X145.320 Y96.863 E5.91088
G1 X142.878 Y97.336 E5.99182
G1 X140.353 Y97.628 E6.07449
G1 X137.797 Y97.727 E6.15773
G1 X135.222 Y97.629 E6.24155
G1 X132.611 Y97.323 E6.32711
G1 X130.169 Y96.848 E6.40804
G1 X127.718 Y96.175 E6.49071
G1 X125.294 Y95.305 E6.57453
G1 X122.959 Y94.258 E6.65778
G1 X120.651 Y92.997 E6.74333
G1 X118.564 Y91.644 E6.82426
G1 X116.543 Y90.104 E6.90694
G1 X114.619 Y88.391 E6.99075
G1 X112.845 Y86.547 E7.07400
G1 X111.175 Y84.515 E7.15955
G1 X109.745 Y82.480 E7.24049
G1 X108.447 Y80.296 E7.32315
G1 X107.303 Y77.987 E7.40697
G1 X106.325 Y75.547 E7.49252
G1 X105.575 Y73.175 E7.57346
G1 X104.996 Y70.701 E7.65613
G1 X104.602 Y68.155 E7.73995
G1 X104.405 Y65.517 E7.82601
G1 F1800.000 E6.82601
G92 E0
G1 X137.199 Y93.431 F7800.000
G1 E1.00000 F1800.000
G1 X137.084 Y92.835 E1.01972 F378.000
G1 X137.226 Y92.655 E1.02719
G1 X137.379 Y92.148 E1.04441
G1 X137.541 Y91.910 E1.05378
G1 X137.615 Y91.852 E1.05685
G1 X137.663 Y91.223 E1.07738
G1 F1800.000 E0.07738
G92 E0
G1 X149.657 Y89.742 F7800.000
G1 E1.00000 F1800.000
G1 X149.466 Y90.366 E1.02123 F378.000
G1 X149.348 Y90.960 E1.04094
G1 X149.303 Y91.048 E1.04415
G1 X149.081 Y91.309 E1.05530
G1 X148.714 Y91.837 E1.07623
G1 F1800.000 E0.07623
G92 E0
G1 X116.228 Y81.175 F7800.000
G1 E1.00000 F1800.000
G1 X115.837 Y81.498 E1.01649 F378.000
G1 X115.648 Y81.513 E1.02267
G1 X115.425 Y81.575 E1.03018
G1 X114.970 Y81.785 E1.04648
G1 X114.684 Y81.736 E1.05594
G1 X114.502 Y81.621 E1.06291
G1 X114.293 Y81.524 E1.07042
G1 X113.508 Y81.210 E1.09793
G1 F1800.000 E0.09793
G92 E0
G1 X166.299 Y74.180 F7800.000
G1 E1.00000 F1800.000
G1 X166.113 Y74.804 E1.02119 F378.000
G1 X165.999 Y75.400 E1.04092
G1 X165.945 Y75.507 E1.04482
G1 X165.864 Y75.604 E1.04894
G1 X165.659 Y75.766 E1.05744
G1 X165.285 Y76.242 E1.07715
G1 F1800.000 E0.07715
G92 E0
G1 X115.943 Y66.913 F7800.000
G1 E1.00000 F1800.000
G1 X115.740 Y67.569 E1.02233 F378.000
G1 X115.597 Y68.307 E1.04680
G1 X115.512 Y68.532 E1.05462
G1 X115.189 Y68.978 E1.07253
G1 F1800.000 E0.07253
G92 E0
G1 X117.787 Y55.534 F7800.000
G1 E1.00000 F1800.000
G1 X117.582 Y56.149 E1.02109 F378.000
G1 X117.451 Y56.749 E1.04107
G1 X117.405 Y56.834 E1.04418
G1 X117.180 Y57.088 E1.05523
G1 X116.800 Y57.605 E1.07613
G1 F1800.000 E0.07613
G92 E0
G1 X163.335 Y54.652 F7800.000
G1 E1.00000 F1800.000
G1 X163.225 Y54.083 E1.01886 F378.000
G1 X163.411 Y53.855 E1.02846
G1 X163.610 Y53.400 E1.04461
G1 X163.709 Y53.236 E1.05084
G1 X163.771 Y52.830 E1.06420
G1 X164.210 Y52.342 E1.08558
G1 X164.318 Y52.030 E1.09632
G1 X164.547 Y51.994 E1.10387
G1 X164.666 Y52.078 E1.10860
G1 X164.894 Y52.181 E1.11674
G1 F1800.000 E0.11674
G92 E0
G1 X121.215 Y49.082 F7800.000
G1 E1.00000 F1800.000
G1 X120.870 Y49.421 E1.01574 F378.000
G1 X120.713 Y49.444 E1.02087
G1 X120.490 Y49.524 E1.02860
G1 X120.084 Y49.753 E1.04375
G1 X119.744 Y49.721 E1.05486
G1 X119.538 Y49.614 E1.06242
G1 X119.341 Y49.540 E1.06924
G1 X118.540 Y49.286 E1.09662
G1 F1800.000 E0.09662
G92 E0
G1 X124.045 Y46.830 F7800.000
G1 E1.00000 F1800.000
G1 X123.839 Y47.219 E1.01431 F378.000
G1 X123.455 Y47.819 E1.03749
G1 X123.299 Y48.158 E1.04962
G1 X122.300 Y49.285 E1.09864
G1 F1800.000 E0.09864
G92 E0
G1 X152.054 Y47.496 F7800.000
G1 E1.00000 F1800.000
G1 X152.407 Y46.994 E1.01999 F378.000
G1 X152.814 Y46.966 E1.03327
G1 X153.089 Y47.002 E1.04230
G1 X153.304 Y47.069 E1.04961
G1 X153.564 Y47.018 E1.05822
G1 X153.900 Y46.669 E1.07398
G1 X154.093 Y46.527 E1.08179
G1 X154.235 Y46.462 E1.08687
G1 X154.469 Y46.044 E1.10244
G1 F1800.000 E0.10244
G92 E0
G1 X137.087 Y40.723 F7800.000
G1 E1.00000 F1800.000
G1 X137.584 Y40.769 E1.01623 F378.000
G1 X137.839 Y40.752 E1.02457
G1 X138.101 Y41.149 E1.04005
G1 X138.727 Y41.571 E1.06460
G1 F1800.000 E0.06460
G92 E0
G1 X77.000 Y63.065 F7800.000
G1 E1.00000 F1800.000
G1 X76.997 Y63.954 E1.02892 F378.000
G1 X76.900 Y65.170 E1.06863
G1 X76.848 Y65.749 E1.08755
G1 X76.691 Y66.565 E1.11458
G1 X76.888 Y64.283 F7800.000
G1 X76.846 Y64.241 E1.11650 F1080.000
G1 X77.147 Y63.559 E1.14077
G1 X77.108 Y63.519 E1.14260
G1 F1800.000 E0.14260
G92 E0
G1 X76.393 Y75.496 F7800.000
G1 E1.00000 F1800.000
G1 X76.917 Y74.372 E1.04033 F378.000
G1 X77.314 Y73.905 E1.06027
G1 X77.626 Y73.597 E1.07454
G1 X78.468 Y72.959 E1.10891
G1 X79.006 Y72.743 E1.12778
G1 X79.999 Y72.515 E1.16091
G1 F1800.000 E0.16091
G92 E0
G1 X58.822 Y86.273 F7800.000
G1 E1.00000 F1800.000
G1 X59.711 Y85.612 E1.03605 F378.000
G1 X59.818 Y85.553 E1.04000
G1 X60.868 Y85.125 E1.07689
G1 X61.255 Y85.057 E1.08967
G1 X61.997 Y85.022 E1.11384
G1 X62.290 Y84.980 E1.12347
G1 X63.279 Y85.137 E1.15606
G1 X63.898 Y85.411 E1.17809
G1 X64.482 Y85.729 E1.19972
G1 F1800.000 E0.19972
G92 E0
G1 X46.245 Y87.134 F7800.000
G1 E1.00000 F1800.000
G1 X46.771 Y86.013 E1.04030 F378.000
G1 X47.170 Y85.546 E1.06026
G1 X47.406 Y85.305 E1.07124
G1 X48.344 Y84.592 E1.10958
G1 X48.904 Y84.363 E1.12926
G1 X49.258 Y84.241 E1.14145
G1 X50.327 Y84.052 E1.17676
G1 X50.985 Y84.114 E1.19828
G1 X51.633 Y84.227 E1.21968
G1 F1800.000 E0.21968
G92 E0
G1 X28.044 Y60.363 F7800.000
G1 E1.00000 F1800.000
G1 X28.546 Y59.260 E1.03943 F378.000
G1 X28.963 Y58.770 E1.06036
G1 X29.431 Y58.303 E1.08186
G1 F1800.000 E0.08186
G92 E0
G1 X31.448 Y49.376 F7800.000
G1 E1.00000 F1800.000
G1 X31.940 Y48.270 E1.03941 F378.000
G1 X32.353 Y47.774 E1.06039
G1 X32.812 Y47.307 E1.08171
G1 F1800.000 E0.08171
G92 E0
G1 X48.052 Y40.245 F7800.000
G1 E1.00000 F1800.000
G1 X47.762 Y40.212 E1.00952 F378.000
G1 X47.394 Y40.260 E1.02159
G1 X47.094 Y39.715 E1.04184
G1 X46.994 Y39.488 E1.04990
G1 X46.592 Y38.983 E1.07089
G1 F1800.000 E0.07089
G92 E0
G1 X50.151 Y36.440 F7800.000
G1 E1.00000 F1800.000
G1 X50.698 Y35.378 E1.03886 F378.000
G1 X51.458 Y34.591 E1.07447
G1 X51.673 Y34.439 E1.08303
G1 X52.175 Y34.146 E1.10195
G1 F1800.000 E0.10195
G92 E0
G1 X57.808 Y35.005 F7800.000
G1 E1.00000 F1800.000
G1 X56.474 Y34.406 E1.04757 F378.000
G1 X56.047 Y34.140 E1.06394
G1 X55.664 Y33.789 E1.08083
G1 X55.051 Y33.586 E1.10184
G1 F1800.000 E0.10184
G92 E0
G1 X76.952 Y39.797 F7800.000
G1 E1.00000 F1800.000
G1 X76.529 Y40.355 E1.02279 F378.000
G1 X76.002 Y40.446 E1.04020
G1 X75.500 Y40.453 E1.05653
G1 X74.873 Y40.337 E1.07729
G1 X74.238 Y40.480 E1.09846
G1 F1800.000 E0.09846
G92 E0
G1 X39.515 Y62.709 F7800.000
G1 E1.00000 F1800.000
G1 X39.888 Y59.914 E1.09173 F378.000
G1 X40.626 Y57.293 E1.18033
G1 X41.745 Y54.799 E1.26927
G1 X43.214 Y52.498 E1.35809
G1 X43.330 Y52.356 E1.36406
G1 X45.007 Y50.429 E1.44716
G1 X47.070 Y48.653 E1.53573
G1 X49.383 Y47.189 E1.62478
G1 X51.876 Y46.080 E1.71355
G1 X54.508 Y45.345 E1.80245
G1 X57.220 Y45.002 E1.89140
G1 X59.952 Y45.057 E1.98031
G1 X60.131 Y45.082 E1.98620
G1 X62.643 Y45.508 E2.06908
G1 X65.244 Y46.348 E2.15802
G1 X67.692 Y47.556 E2.24684
G1 X69.940 Y49.109 E2.33573
G1 X71.940 Y50.974 E2.42470
G1 X73.644 Y53.108 E2.51354
G1 X75.026 Y55.483 E2.60294
G1 X75.329 Y56.224 E2.62899
G1 F1800.000 E1.62899
G92 E0
G1 X29.729 Y71.859 F7800.000
G1 E1.00000 F1800.000
G1 X30.231 Y70.725 E1.04034 F378.000
G1 X30.618 Y70.251 E1.06027
G1 X30.849 Y70.004 E1.07126
G1 X31.610 Y69.384 E1.10317
G1 X31.753 Y69.282 E1.10889
G1 X32.290 Y69.053 E1.12789
G1 X32.891 Y68.886 E1.14818
G1 X33.059 Y68.854 E1.15374
G1 X33.659 Y68.901 E1.17332
G1 X35.211 Y68.825 F7800.000
G1 X36.450 Y69.418 E1.21801 F378.000
G1 X36.903 Y69.808 E1.23746
G1 X37.559 Y70.582 E1.27046
G1 F1800.000 E0.27046
G92 E0
G1 X80.544 Y50.776 F7800.000
G1 E1.00000 F1800.000
G1 X81.280 Y50.187 E1.03065 F378.000
G1 X81.363 Y50.141 E1.03375
G1 X82.095 Y49.993 E1.05803
G1 X82.723 Y50.241 E1.07999
G1 F1800.000 E0.07999
G92 E0
G1 X39.376 Y40.596 F7800.000
G1 E1.00000 F1800.000
G1 X39.747 Y39.988 E1.02317 F378.000
G1 X39.955 Y39.688 E1.03505
G1 X40.387 Y39.211 E1.05599
G1 X40.748 Y39.054 E1.06879
G1 X41.211 Y38.733 E1.08713
G1 X42.196 Y37.820 E1.13082
G1 F1800.000 E0.13082
G92 E0
G1 X61.612 Y37.453 F7800.000
G1 E1.00000 F1800.000
G1 X62.127 Y36.356 E1.03942 F378.000
G1 X62.550 Y35.869 E1.06039
G1 X63.021 Y35.408 E1.08185
G1 X64.311 Y34.647 F7800.000
G1 X64.974 Y34.516 E1.10382 F378.000
G1 X65.518 Y34.637 E1.12196
G1 X65.938 Y34.663 E1.13564
G1 X66.963 Y34.589 E1.16908
G1 X67.094 Y34.632 E1.17358
G1 X67.602 Y34.960 E1.19325
G1 F1800.000 E0.19325
G92 E0
G1 Z0.750 F7800.000
G1 X138.296 Y29.903 F7800.000
G1 E1.00000 F1800.000
M106 S255
G1 X139.665 Y29.951 E1.03805 F3600.000
G1 X140.842 Y30.033 E1.07085
G1 X142.140 Y30.177 E1.10713
G1 X143.402 Y30.403 E1.14272
G1 X144.638 Y30.582 E1.17741
G1 X145.692 Y30.814 E1.20739
G1 X146.992 Y31.149 E1.24469
G1 X148.125 Y31.491 E1.27758
G1 X149.410 Y31.923 E1.31521
G1 X150.561 Y32.352 E1.34935
G1 X151.744 Y32.852 E1.38502
G1 X152.885 Y33.428 E1.42053
G1 X153.958 Y33.937 E1.45351
G1 X154.949 Y34.479 E1.48490
G1 X156.094 Y35.167 E1.52200
G1 X157.105 Y35.832 E1.55561
G1 X158.175 Y36.590 E1.59203
G1 X159.168 Y37.398 E1.62760
G1 X160.105 Y38.109 E1.66027
G1 X161.002 Y38.909 E1.69366
G1 X162.000 Y39.854 E1.73183
G1 X162.757 Y40.625 E1.76184
G1 X163.644 Y41.593 E1.79832
G1 X164.445 Y42.547 E1.83293
G1 X165.255 Y43.578 E1.86934
G1 X165.984 Y44.650 E1.90534
G1 X166.657 Y45.567 E1.93695
G1 X167.244 Y46.516 E1.96794
G1 X167.932 Y47.704 E2.00607
G1 X168.488 Y48.744 E2.03884
G1 X169.046 Y49.901 E2.07451
G1 X169.515 Y51.067 E2.10943
G1 X170.009 Y52.217 E2.14419
G1 X170.390 Y53.268 E2.17524
G1 X170.795 Y54.543 E2.21240
G1 X171.091 Y55.631 E2.24374
G1 X171.407 Y56.947 E2.28131
G1 X171.649 Y58.133 E2.31494
G1 X171.858 Y59.422 E2.35121
G1 X171.979 Y60.733 E2.38780
G1 X172.132 Y61.917 E2.42094
G1 X172.187 Y63.066 E2.45291
G1 X172.210 Y64.417 E2.49045
G1 X172.185 Y65.575 E2.52261
G1 X172.114 Y66.881 E2.55895
G1 X171.948 Y68.195 E2.59572
G1 X171.840 Y69.403 E2.62942
G1 X171.664 Y70.461 E2.65921
G1 X171.400 Y71.763 E2.69613
G1 X171.133 Y72.891 E2.72831
G1 X170.784 Y74.151 E2.76463
G1 X170.397 Y75.366 E2.80006
G1 X169.954 Y76.600 E2.83649
G1 X169.430 Y77.788 E2.87255
G1 X168.993 Y78.872 E2.90501
G1 X168.511 Y79.867 E2.93573
G1 X167.893 Y81.028 E2.97224
G1 X167.293 Y82.069 E3.00564
G1 X166.609 Y83.161 E3.04143
G1 X165.840 Y84.212 E3.07759
G1 X165.130 Y85.249 E3.11251
G1 X164.456 Y86.102 E3.14269
G1 X163.594 Y87.113 E3.17962
G1 X162.813 Y87.972 E3.21186
G1 X161.897 Y88.905 E3.24818
G1 X160.967 Y89.784 E3.28371
G1 X159.982 Y90.648 E3.32013
G1 X158.948 Y91.434 E3.35620
G1 X158.054 Y92.160 E3.38818
G1 X157.169 Y92.785 E3.41828
G1 X156.068 Y93.501 E3.45478
G1 X155.018 Y94.138 E3.48888
G1 X153.892 Y94.761 E3.52463
G1 X152.710 Y95.309 E3.56081
G1 X151.574 Y95.877 E3.59611
G1 X150.573 Y96.296 E3.62625
G1 X149.330 Y96.764 E3.66313
G1 X148.229 Y97.137 E3.69542
G1 X146.976 Y97.510 E3.73173
G1 X145.734 Y97.828 E3.76735
G1 X144.453 Y98.108 E3.80379
G1 X143.168 Y98.295 E3.83985
G1 X142.039 Y98.496 E3.87169
G1 X140.939 Y98.617 E3.90244
G1 X139.629 Y98.710 E3.93893
G1 X138.400 Y98.755 E3.97308
G1 X137.112 Y98.755 E4.00888
G1 X135.809 Y98.661 E4.04515
G1 X134.563 Y98.609 E4.07980
G1 X133.489 Y98.492 E4.10982
G1 X132.177 Y98.299 E4.14665
G1 X131.008 Y98.087 E4.17964
G1 X129.748 Y97.809 E4.21549
G1 X128.511 Y97.443 E4.25132
G1 X127.270 Y97.120 E4.28693
G1 X126.032 Y96.649 E4.32372
G1 X124.957 Y96.283 E4.35527
G1 X123.951 Y95.862 E4.38556
G1 X122.764 Y95.311 E4.42193
G1 X121.662 Y94.754 E4.45622
G1 X120.532 Y94.129 E4.49208
G1 X119.436 Y93.415 E4.52843
G1 X118.369 Y92.767 E4.56310
G1 X117.478 Y92.138 E4.59341
G1 X116.426 Y91.335 E4.63015
G1 X115.505 Y90.583 E4.66318
G1 X114.537 Y89.730 E4.69901
G1 X113.632 Y88.810 E4.73488
G1 X112.700 Y87.923 E4.77063
G1 X111.845 Y86.912 E4.80738
G1 X111.086 Y86.075 E4.83877
G1 X110.399 Y85.206 E4.86956
G1 X109.625 Y84.146 E4.90600
G1 X108.938 Y83.136 E4.93994
G1 X108.254 Y82.045 E4.97571
G1 X107.642 Y80.890 E5.01202
G1 X107.024 Y79.807 E5.04666
G1 X106.549 Y78.826 E5.07692
G1 X106.018 Y77.615 E5.11367
G1 X105.576 Y76.511 E5.14669
G1 X105.142 Y75.296 E5.18252
G1 X104.796 Y74.051 E5.21841
G1 X104.409 Y72.818 E5.25431
