; generated by Slic3r 1.1.6 on 2014-11-27 at 11:42:11

; perimeters extrusion width = 0.50mm
; infill extrusion width = 0.52mm
; solid infill extrusion width = 0.52mm
; top infill extrusion width = 0.52mm

G21 ; set units to millimeters
M107
M104 S200 ; set temperature
G28 ; home all axes
G1 Z5 F5000 ; lift nozzle

M109 S200 ; wait for temperature to be reached
G90 ; use absolute coordinates
G92 E0
M82 ; use absolute distances for extrusion
G1 F1800.000 E-1.00000
G92 E0
G1 Z0.350 F7800.000
G1 X85.256 Y85.637 F7800.000
G1 E1.00000 F1800.000
G1 X87.848 Y83.461 E1.11011 F1080.000
G1 X89.851 Y82.305 E1.18533
G1 X93.031 Y81.148 E1.29544
G1 X95.308 Y80.746 E1.37066
G1 X98.692 Y80.746 E1.48077
G1 X100.969 Y81.148 E1.55599
G1 X101.662 Y81.400 E1.57999
G1 X104.149 Y82.305 E1.66611
G1 X106.152 Y83.461 E1.74133
G1 X108.744 Y85.637 E1.85144
G1 X110.230 Y87.408 E1.92666
G1 X111.922 Y90.339 E2.03677
G1 X112.713 Y92.511 E2.11199
G1 X113.301 Y95.844 E2.22210
G1 X113.301 Y98.156 E2.29732
G1 X112.713 Y101.489 E2.40743
G1 X111.922 Y103.661 E2.48265
G1 X110.230 Y106.592 E2.59276
G1 X108.744 Y108.363 E2.66798
G1 X106.152 Y110.539 E2.77810
G1 X104.149 Y111.695 E2.85332
G1 X100.969 Y112.852 E2.96343
G1 X98.692 Y113.254 E3.03865
G1 X95.308 Y113.254 E3.14876
G1 X93.031 Y112.852 E3.22398
G1 X89.851 Y111.695 E3.33409
G1 X87.848 Y110.539 E3.40931
G1 X85.256 Y108.363 E3.51942
G1 X83.770 Y106.592 E3.59464
G1 X82.078 Y103.661 E3.70475
G1 X81.287 Y101.489 E3.77997
G1 X80.699 Y98.156 E3.89009
G1 X80.699 Y95.844 E3.96531
G1 X81.287 Y92.511 E4.07542
G1 X82.078 Y90.339 E4.15064
G1 X83.770 Y87.408 E4.26075
G1 X85.208 Y85.694 E4.33353
G1 F1800.000 E3.33353
G92 E0
G1 X103.171 Y102.178 F7800.000
G1 E1.00000 F1800.000
G1 X101.028 Y103.976 E1.09102 F540.000
G1 X98.399 Y104.933 E1.18203
G1 X95.601 Y104.933 E1.27305
G1 X92.972 Y103.976 E1.36407
G1 X90.829 Y102.178 E1.45508
G1 X89.431 Y99.755 E1.54610
G1 X88.945 Y97.000 E1.63712
G1 X89.431 Y94.245 E1.72813
G1 X90.829 Y91.822 E1.81915
G1 X92.972 Y90.024 E1.91017
G1 X95.601 Y89.067 E2.00119
G1 X98.399 Y89.067 E2.09220
G1 X101.028 Y90.024 E2.18322
G1 X103.171 Y91.822 E2.27424
G1 X104.569 Y94.245 E2.36525
G1 X105.055 Y97.000 E2.45627
G1 X104.569 Y99.755 E2.54729
G1 X103.208 Y102.113 E2.63586
G1 X103.682 Y102.607 F7800.000
G1 X101.361 Y104.554 E2.73442 F540.000
G1 X98.515 Y105.590 E2.83298
G1 X95.485 Y105.590 E2.93153
G1 X92.639 Y104.554 E3.03009
G1 X90.318 Y102.607 E3.12864
G1 X88.804 Y99.983 E3.22720
G1 X88.278 Y97.000 E3.32576
G1 X88.804 Y94.017 E3.42431
G1 X90.318 Y91.393 E3.52287
G1 X92.639 Y89.446 E3.62142
G1 X95.485 Y88.410 E3.71998
G1 X98.515 Y88.410 E3.81854
G1 X101.361 Y89.446 E3.91709
G1 X103.682 Y91.393 E4.01565
G1 X105.196 Y94.017 E4.11420
G1 X105.722 Y97.000 E4.21276
G1 X105.196 Y99.983 E4.31131
G1 X103.719 Y102.542 E4.40743
G1 X104.193 Y103.035 F7800.000
G1 X101.695 Y105.132 E4.51353 F378.000
G1 X98.630 Y106.247 E4.61962
G1 X95.370 Y106.247 E4.72572
G1 X92.305 Y105.132 E4.83181
G1 X89.807 Y103.035 E4.93791
G1 X88.177 Y100.211 E5.04400
G1 X87.611 Y97.000 E5.15010
G1 X88.177 Y93.789 E5.25619
G1 X89.807 Y90.965 E5.36229
G1 X92.305 Y88.868 E5.46838
G1 X95.370 Y87.753 E5.57448
G1 X98.630 Y87.753 E5.68057
G1 X101.695 Y88.868 E5.78667
G1 X104.193 Y90.965 E5.89276
G1 X105.823 Y93.789 E5.99886
G1 X106.389 Y97.000 E6.10495
G1 X105.823 Y100.211 E6.21105
G1 X104.230 Y102.970 E6.31470
G1 X103.706 Y102.920 F7800.000
G1 X95.749 Y104.476 F7800.000
G1 X89.651 Y98.379 E6.59526 F1080.000
G1 X89.444 Y97.202 E6.63415
G1 X96.719 Y104.476 E6.96888
G1 X97.688 Y104.476 E7.00043
G1 X89.529 Y96.317 E7.37586
G1 X89.674 Y95.492 E7.40310
G1 X98.567 Y104.386 E7.81229
G1 X99.278 Y104.127 E7.83691
G1 X89.820 Y94.668 E8.27212
G1 X90.107 Y93.986 E8.29621
G1 X99.989 Y103.868 E8.75090
G1 X100.700 Y103.609 E8.77551
G1 X90.462 Y93.371 E9.24658
G1 X90.817 Y92.756 E9.26968
G1 X101.252 Y103.192 E9.74982
G1 X101.779 Y102.749 E9.77221
G1 X91.182 Y92.151 E10.25983
G1 X91.693 Y91.693 E10.28217
G1 X102.307 Y102.307 E10.77052
G1 X102.818 Y101.849 E10.79286
G1 X92.221 Y91.251 E11.28048
G1 X92.748 Y90.808 E11.30287
G1 X103.183 Y101.243 E11.78301
G1 X103.538 Y100.629 E11.80610
G1 X93.300 Y90.391 E12.27718
G1 X94.011 Y90.132 E12.30179
G1 X103.893 Y100.014 E12.75648
G1 X104.180 Y99.332 E12.78057
G1 X94.722 Y89.873 E13.21578
G1 X95.433 Y89.614 E13.24040
G1 X104.326 Y98.508 E13.64959
G1 X104.471 Y97.683 E13.67682
G1 X96.312 Y89.524 E14.05226
G1 X97.281 Y89.524 E14.08381
G1 X104.556 Y96.798 E14.41854
G1 X104.349 Y95.621 E14.45743
G1 X98.251 Y89.524 E14.73799
G1 X99.737 Y90.040 F7800.000
G1 X104.141 Y94.444 E14.94061 F1080.000
G1 X102.855 Y92.188 F7800.000
G1 X102.638 Y91.971 E14.95059 F1080.000
G1 X94.263 Y103.960 F7800.000
G1 X89.859 Y99.556 E15.15322 F1080.000
G1 X91.145 Y101.812 F7800.000
G1 X91.362 Y102.029 E15.16320 F1080.000
M106 S255
G1 F1800.000 E14.16320
G92 E0
G1 Z0.750 F7800.000
G1 X103.493 Y102.448 F7800.000
G1 E1.00000 F1800.000
G1 X101.238 Y104.340 E1.08329 F792.971
G1 X98.472 Y105.347 E1.16657
G1 X95.528 Y105.347 E1.24986
G1 X92.762 Y104.340 E1.33314
G1 X90.507 Y102.448 E1.41643
G1 X89.036 Y99.899 E1.49971
G1 X88.524 Y97.000 E1.58300
G1 X89.036 Y94.101 E1.66628
G1 X90.507 Y91.552 E1.74957
G1 X92.762 Y89.660 E1.83285
G1 X95.528 Y88.653 E1.91614
G1 X98.472 Y88.653 E1.99942
G1 X101.238 Y89.660 E2.08271
G1 X103.493 Y91.552 E2.16599
G1 X104.964 Y94.101 E2.24928
G1 X105.476 Y97.000 E2.33256
G1 X104.964 Y99.899 E2.41585
G1 X103.530 Y102.383 E2.49701
G1 X103.882 Y102.774 F7800.000
G1 X101.492 Y104.780 E2.58529 F792.971
G1 X98.560 Y105.847 E2.67356
G1 X95.440 Y105.847 E2.76183
G1 X92.508 Y104.780 E2.85011
G1 X90.118 Y102.774 E2.93838
G1 X88.558 Y100.072 E3.02666
G1 X88.017 Y97.000 E3.11493
G1 X88.558 Y93.928 E3.20321
G1 X90.118 Y91.226 E3.29148
G1 X92.508 Y89.220 E3.37975
G1 X95.440 Y88.153 E3.46803
G1 X98.560 Y88.153 E3.55630
G1 X101.492 Y89.220 E3.64458
G1 X103.882 Y91.226 E3.73285
G1 X105.442 Y93.928 E3.82113
G1 X105.983 Y97.000 E3.90940
G1 X105.442 Y100.072 E3.99767
G1 X103.919 Y102.709 E4.08383
G1 X104.271 Y103.101 F7800.000
G1 X101.746 Y105.219 E4.17709 F600.000
G1 X98.648 Y106.347 E4.27035
G1 X95.352 Y106.347 E4.36362
G1 X92.254 Y105.219 E4.45688
G1 X89.729 Y103.101 E4.55014
G1 X88.081 Y100.246 E4.64341
G1 X87.509 Y97.000 E4.73667
G1 X88.081 Y93.754 E4.82993
G1 X89.729 Y90.899 E4.92320
G1 X92.254 Y88.781 E5.01646
G1 X95.352 Y87.653 E5.10972
G1 X98.648 Y87.653 E5.20299
G1 X101.746 Y88.781 E5.29625
G1 X104.271 Y90.899 E5.38951
G1 X105.919 Y93.754 E5.48278
G1 X106.491 Y97.000 E5.57604
G1 X105.919 Y100.246 E5.66930
G1 X104.308 Y103.036 E5.76044
G1 X103.784 Y102.985 F7800.000
G1 X103.045 Y102.371 F7800.000
G1 X103.262 Y102.154 E5.76946 F1585.943
G1 X104.268 Y100.411 F7800.000
G1 X100.405 Y104.274 E5.93009 F1585.943
G1 X99.247 Y104.695 F7800.000
G1 X104.734 Y99.209 E6.15824 F1585.943
G1 X104.892 Y98.315 E6.18494
G1 X98.206 Y105.000 E6.46295
G1 X97.470 Y105.000 E6.48460
G1 X105.049 Y97.421 E6.79979
G1 X105.065 Y96.668 E6.82192
G1 X96.733 Y105.000 E7.16839
G1 X95.997 Y105.000 E7.19004
G1 X104.954 Y96.042 E7.56255
G1 X104.844 Y95.416 E7.58124
G1 X95.348 Y104.912 E7.97614
G1 X94.808 Y104.716 E7.99303
G1 X104.734 Y94.790 E8.40579
G1 X104.609 Y94.179 E8.42414
G1 X94.268 Y104.519 E8.85415
G1 X93.728 Y104.323 E8.87105
G1 X104.339 Y93.712 E9.31230
G1 X104.069 Y93.245 E9.32816
G1 X93.188 Y104.126 E9.78065
G1 X92.723 Y103.855 E9.79649
G1 X103.800 Y92.778 E10.25712
G1 X103.530 Y92.311 E10.27297
G1 X92.323 Y103.518 E10.73904
G1 X91.922 Y103.182 E10.75441
G1 X103.260 Y91.844 E11.22591
G1 X102.879 Y91.490 E11.24123
G1 X91.522 Y102.846 E11.71351
G1 X91.121 Y102.510 E11.72888
G1 X102.478 Y91.154 E12.20116
G1 X102.078 Y90.818 E12.21653
G1 X90.740 Y102.156 E12.68803
G1 X90.470 Y101.689 E12.70388
G1 X101.677 Y90.481 E13.16995
G1 X101.277 Y90.145 E13.18532
G1 X90.200 Y101.222 E13.64595
G1 X89.931 Y100.755 E13.66180
G1 X100.812 Y89.874 E14.11430
G1 X100.272 Y89.677 E14.13120
G1 X89.661 Y100.288 E14.57245
G1 X89.391 Y99.821 E14.58830
G1 X99.732 Y89.481 E15.01831
G1 X99.192 Y89.284 E15.03521
G1 X89.266 Y99.210 E15.44797
G1 X89.156 Y98.584 E15.46666
G1 X98.652 Y89.088 E15.86155
G1 X98.003 Y89.000 E15.88080
G1 X89.046 Y97.958 E16.25331
G1 X88.935 Y97.332 E16.27200
G1 X97.267 Y89.000 E16.61847
G1 X96.530 Y89.000 E16.64013
G1 X88.951 Y96.579 E16.95532
G1 X89.108 Y95.685 E16.98202
G1 X95.794 Y89.000 E17.26002
G1 X94.753 Y89.305 E17.29192
G1 X89.266 Y94.791 E17.52007
G1 X89.732 Y93.589 F7800.000
G1 X93.595 Y89.726 E17.68070 F1585.943
G1 X90.955 Y91.629 F7800.000
G1 X90.738 Y91.846 E17.68972 F1585.943
G1 F1800.000 E16.68972
G92 E0
G1 Z1.150 F7800.000
G1 X103.383 Y102.356 F7800.000
G1 E1.00000 F1800.000
G1 X101.166 Y104.216 E1.08188 F766.870
G1 X98.447 Y105.206 E1.16376
G1 X95.553 Y105.206 E1.24563
G1 X92.834 Y104.216 E1.32751
G1 X90.617 Y102.356 E1.40939
G1 X89.170 Y99.850 E1.49127
G1 X88.668 Y97.000 E1.57314
G1 X89.170 Y94.150 E1.65502
G1 X90.617 Y91.644 E1.73690
G1 X91.373 Y91.010 E1.76482
G1 X92.834 Y89.784 E1.81878
G1 X95.553 Y88.794 E1.90066
G1 X98.447 Y88.794 E1.98253
G1 X101.166 Y89.784 E2.06441
G1 X103.383 Y91.644 E2.14629
G1 X104.830 Y94.150 E2.22817
G1 X105.332 Y97.000 E2.31004
G1 X104.830 Y99.850 E2.39192
G1 X103.420 Y102.291 E2.47168
G1 X103.772 Y102.682 F7800.000
G1 X101.420 Y104.656 E2.55854 F766.870
G1 X98.535 Y105.706 E2.64541
G1 X95.465 Y105.706 E2.73228
G1 X92.580 Y104.656 E2.81915
G1 X90.228 Y102.682 E2.90601
G1 X88.693 Y100.023 E2.99288
G1 X88.160 Y97.000 E3.07975
G1 X88.693 Y93.977 E3.16661
G1 X90.228 Y91.318 E3.25348
G1 X91.052 Y90.627 E3.28390
G1 X92.580 Y89.344 E3.34035
G1 X95.465 Y88.294 E3.42721
G1 X98.535 Y88.294 E3.51408
G1 X101.420 Y89.344 E3.60095
G1 X103.772 Y91.318 E3.68781
G1 X105.307 Y93.977 E3.77468
G1 X105.840 Y97.000 E3.86155
G1 X105.307 Y100.023 E3.94841
G1 X103.809 Y102.617 E4.03316
G1 X104.161 Y103.009 F7800.000
G1 X101.674 Y105.095 E4.12501 F600.000
G1 X98.623 Y106.206 E4.21687
G1 X95.377 Y106.206 E4.30873
G1 X92.326 Y105.095 E4.40058
G1 X89.839 Y103.009 E4.49244
G1 X88.216 Y100.197 E4.58429
G1 X87.652 Y97.000 E4.67615
G1 X88.216 Y93.803 E4.76801
G1 X89.839 Y90.991 E4.85986
G1 X90.730 Y90.244 E4.89277
G1 X92.326 Y88.905 E4.95172
G1 X95.377 Y87.794 E5.04357
G1 X98.623 Y87.794 E5.13543
G1 X101.674 Y88.905 E5.22728
G1 X104.161 Y90.991 E5.31914
G1 X105.784 Y93.803 E5.41100
G1 X106.348 Y97.000 E5.50285
G1 X105.784 Y100.197 E5.59471
G1 X104.198 Y102.944 E5.68444
G1 X103.674 Y102.893 F7800.000
G1 X94.869 Y104.588 F7800.000
G1 X89.392 Y99.111 E5.91219 F1533.739
G1 X89.232 Y98.203 E5.93929
G1 X95.888 Y104.859 E6.21607
G1 X96.635 Y104.859 E6.23805
G1 X89.072 Y97.296 E6.55257
G1 X89.095 Y96.571 E6.57388
G1 X97.383 Y104.859 E6.91851
G1 X98.130 Y104.859 E6.94049
G1 X89.208 Y95.936 E7.31156
G1 X89.320 Y95.300 E7.33054
G1 X98.747 Y104.727 E7.72257
G1 X99.295 Y104.528 E7.73972
G1 X89.432 Y94.665 E8.14988
G1 X89.605 Y94.091 E8.16752
G1 X99.843 Y104.329 E8.59326
G1 X100.391 Y104.129 E8.61042
G1 X89.879 Y93.617 E9.04757
G1 X90.152 Y93.143 E9.06367
G1 X100.939 Y103.930 E9.51224
G1 X101.359 Y103.602 E9.52790
G1 X90.426 Y92.669 E9.98255
G1 X90.700 Y92.195 E9.99864
G1 X101.765 Y103.260 E10.45881
G1 X102.172 Y102.919 E10.47441
G1 X91.019 Y91.767 E10.93820
G1 X91.422 Y91.422 E10.95379
G1 X102.578 Y102.578 E11.41774
G1 X102.981 Y102.233 E11.43333
G1 X91.828 Y91.081 E11.89712
G1 X92.235 Y90.740 E11.91272
G1 X103.300 Y101.805 E12.37289
G1 X103.574 Y101.331 E12.38898
G1 X92.641 Y90.398 E12.84363
G1 X93.061 Y90.070 E12.85929
G1 X103.848 Y100.857 E13.30786
G1 X104.121 Y100.383 E13.32396
G1 X93.609 Y89.871 E13.76111
G1 X94.157 Y89.671 E13.77827
G1 X104.395 Y99.909 E14.20401
G1 X104.568 Y99.335 E14.22165
G1 X94.705 Y89.472 E14.63181
G1 X95.253 Y89.272 E14.64896
G1 X104.680 Y98.700 E15.04099
G1 X104.792 Y98.064 E15.05997
G1 X95.870 Y89.141 E15.43103
G1 X96.617 Y89.141 E15.45302
G1 X104.905 Y97.429 E15.79765
G1 X104.928 Y96.704 E15.81896
G1 X97.365 Y89.141 E16.13348
G1 X98.112 Y89.141 E16.15546
G1 X104.768 Y95.797 E16.43224
G1 X104.608 Y94.889 E16.45934
G1 X99.131 Y89.412 E16.68709
G1 X100.307 Y89.840 F7800.000
G1 X104.173 Y93.707 E16.84788 F1533.739
G1 X103.152 Y91.938 F7800.000
G1 X102.935 Y91.721 E16.85690 F1533.739
G1 X93.693 Y104.160 F7800.000
G1 X89.827 Y100.293 E17.01770 F1533.739
G1 X90.848 Y102.062 F7800.000
G1 X91.065 Y102.279 E17.02672 F1533.739
G1 F1800.000 E16.02672
G92 E0
G1 Z1.550 F7800.000
G1 X103.295 Y102.282 F7800.000
G1 E1.00000 F1800.000
G1 X101.109 Y104.116 E1.08075 F600.000
G1 X98.427 Y105.093 E1.16150
G1 X95.573 Y105.093 E1.24224
G1 X92.891 Y104.116 E1.32299
G1 X90.705 Y102.282 E1.40374
G1 X89.278 Y99.810 E1.48449
G1 X88.783 Y97.000 E1.56523
G1 X89.278 Y94.189 E1.64598
G1 X90.705 Y91.718 E1.72673
G1 X92.891 Y89.884 E1.80748
G1 X95.573 Y88.907 E1.88823
G1 X98.427 Y88.907 E1.96897
G1 X101.109 Y89.884 E2.04972
G1 X103.295 Y91.718 E2.13047
G1 X104.722 Y94.189 E2.21122
G1 X105.217 Y97.000 E2.29196
G1 X104.722 Y99.810 E2.37271
G1 X103.332 Y102.217 E2.45134
G1 X103.684 Y102.608 F7800.000
G1 X101.363 Y104.556 E2.53707 F600.000
G1 X98.515 Y105.593 E2.62281
G1 X95.485 Y105.593 E2.70855
G1 X92.637 Y104.556 E2.79428
G1 X90.316 Y102.608 E2.88002
G1 X88.801 Y99.984 E2.96576
G1 X88.275 Y97.000 E3.05149
G1 X88.801 Y94.016 E3.13723
G1 X89.403 Y92.974 E3.17126
G1 X90.316 Y91.392 E3.22297
G1 X92.637 Y89.444 E3.30871
G1 X95.485 Y88.407 E3.39444
G1 X98.515 Y88.407 E3.48018
G1 X101.363 Y89.444 E3.56592
G1 X103.684 Y91.392 E3.65165
G1 X105.199 Y94.016 E3.73739
G1 X105.725 Y97.000 E3.82313
G1 X105.199 Y99.984 E3.90886
G1 X103.721 Y102.543 E3.99248
G1 X104.073 Y102.935 F7800.000
G1 X101.616 Y104.996 E4.08320 F600.000
G1 X98.603 Y106.093 E4.17393
G1 X95.397 Y106.093 E4.26465
G1 X92.384 Y104.996 E4.35538
G1 X89.927 Y102.935 E4.44611
G1 X88.324 Y100.158 E4.53683
G1 X87.767 Y97.000 E4.62756
G1 X88.324 Y93.842 E4.71828
G1 X89.927 Y91.065 E4.80901
G1 X92.384 Y89.004 E4.89974
G1 X93.865 Y88.465 E4.94434
G1 X95.397 Y87.907 E4.99046
G1 X98.603 Y87.907 E5.08119
G1 X101.616 Y89.004 E5.17191
G1 X104.073 Y91.065 E5.26264
G1 X105.676 Y93.842 E5.35336
G1 X106.233 Y97.000 E5.44409
G1 X105.676 Y100.158 E5.53482
G1 X104.110 Y102.870 E5.62342
G1 X103.586 Y102.819 F7800.000
G1 X104.296 Y99.815 F7800.000
G1 X103.581 Y99.623 E5.64519 F1136.053
G1 X102.308 Y100.896 E5.69812
G1 X102.541 Y101.765 E5.72458
G1 X101.268 Y103.038 E5.77751
G1 X100.399 Y102.805 E5.80398
G1 X99.126 Y104.078 E5.85691
G1 X99.216 Y104.415 E5.86717
G1 X96.641 Y104.726 E5.94344
G1 X97.889 Y103.477 E5.99535
G1 X98.758 Y103.710 E6.02181
G1 X100.031 Y102.438 E6.07475
G1 X99.798 Y101.568 E6.10121
G1 X101.071 Y100.295 E6.15414
G1 X101.941 Y100.528 E6.18061
G1 X103.213 Y99.255 E6.23354
G1 X102.980 Y98.386 E6.26001
G1 X104.253 Y97.113 E6.31294
G1 X104.799 Y97.260 E6.32955
G1 X104.498 Y95.032 E6.39566
G1 X103.653 Y95.876 E6.43079
G1 X103.886 Y96.746 E6.45726
G1 X102.613 Y98.019 E6.51019
G1 X101.744 Y97.786 E6.53666
G1 X100.471 Y99.059 E6.58959
G1 X100.704 Y99.928 E6.61605
G1 X99.431 Y101.201 E6.66898
G1 X98.562 Y100.968 E6.69545
G1 X97.289 Y102.241 E6.74838
G1 X97.522 Y103.110 E6.77485
G1 X96.249 Y104.383 E6.82778
G1 X95.379 Y104.150 E6.85425
G1 X95.026 Y104.503 E6.86893
G1 X94.488 Y104.307 E6.88579
G1 X95.012 Y103.782 E6.90760
G1 X94.779 Y102.913 E6.93407
G1 X96.052 Y101.640 E6.98700
G1 X96.921 Y101.873 E7.01346
G1 X98.194 Y100.600 E7.06639
G1 X97.961 Y99.731 E7.09286
G1 X99.234 Y98.458 E7.14579
G1 X100.103 Y98.691 E7.17226
G1 X101.376 Y97.418 E7.22519
G1 X101.143 Y96.549 E7.25165
G1 X102.416 Y95.276 E7.30459
G1 X103.285 Y95.509 E7.33105
G1 X104.388 Y94.407 E7.37688
G1 X103.548 Y92.889 E7.42789
G1 X103.089 Y92.766 E7.44186
G1 X101.816 Y94.039 E7.49479
G1 X102.049 Y94.909 E7.52126
G1 X100.776 Y96.182 E7.57419
G1 X99.906 Y95.949 E7.60065
G1 X98.634 Y97.221 E7.65359
G1 X98.867 Y98.091 E7.68005
G1 X97.594 Y99.364 E7.73298
G1 X96.724 Y99.131 E7.75945
G1 X95.452 Y100.403 E7.81238
G1 X95.684 Y101.273 E7.83885
G1 X94.412 Y102.546 E7.89178
G1 X93.542 Y102.313 E7.91824
G1 X92.525 Y103.330 E7.96055
G1 X92.125 Y102.995 E7.97589
G1 X93.175 Y101.945 E8.01953
G1 X92.942 Y101.076 E8.04599
G1 X94.215 Y99.803 E8.09893
