; generated by Slic3r 1.1.6 on 2014-11-27 at 11:42:52

; perimeters extrusion width = 0.50mm
; infill extrusion width = 0.52mm
; solid infill extrusion width = 0.52mm
; top infill extrusion width = 0.52mm

G21 ; set units to millimeters
M107
M104 S200 ; set temperature
G28 ; home all axes
G1 Z5 F5000 ; lift nozzle

M109 S200 ; wait for temperature to be reached
G90 ; use absolute coordinates
G92 E0
M82 ; use absolute distances for extrusion
G1 F1800.000 E-1.00000
G92 E0
G1 Z0.350 F7800.000
G1 X85.717 Y86.185 F7800.000
G1 E1.00000 F1800.000
G1 X88.497 Y83.852 E1.11806 F1080.000
G1 X90.499 Y82.696 E1.19327
G1 X93.909 Y81.455 E1.31133
G1 X96.186 Y81.054 E1.38655
G1 X99.814 Y81.054 E1.50461
G1 X102.091 Y81.455 E1.57983
G1 X105.501 Y82.696 E1.69789
G1 X107.503 Y83.852 E1.77311
G1 X110.283 Y86.185 E1.89116
G1 X111.769 Y87.956 E1.96638
G1 X113.583 Y91.098 E2.08444
G1 X114.374 Y93.271 E2.15966
G1 X115.004 Y96.844 E2.27772
G1 X115.004 Y99.156 E2.35294
G1 X114.374 Y102.729 E2.47099
G1 X113.583 Y104.902 E2.54621
G1 X111.769 Y108.044 E2.66427
G1 X110.283 Y109.815 E2.73949
G1 X107.503 Y112.148 E2.85755
G1 X105.501 Y113.304 E2.93276
G1 X102.091 Y114.545 E3.05082
G1 X99.814 Y114.946 E3.12604
G1 X96.186 Y114.946 E3.24410
G1 X93.909 Y114.545 E3.31932
G1 X90.499 Y113.304 E3.43738
G1 X88.497 Y112.148 E3.51260
G1 X85.717 Y109.815 E3.63065
G1 X84.231 Y108.044 E3.70587
G1 X82.417 Y104.902 E3.82393
G1 X81.626 Y102.729 E3.89915
G1 X80.996 Y99.156 E4.01721
G1 X80.996 Y96.844 E4.09242
G1 X81.626 Y93.271 E4.21048
G1 X82.417 Y91.098 E4.28570
G1 X84.231 Y87.956 E4.40376
G1 X85.669 Y86.242 E4.47654
G1 F1800.000 E3.47654
G92 E0
G1 X104.709 Y103.630 F7800.000
G1 E1.00000 F1800.000
G1 X102.379 Y105.585 E1.09896 F540.000
G1 X99.521 Y106.625 E1.19792
G1 X96.479 Y106.625 E1.29689
G1 X93.621 Y105.585 E1.39585
G1 X91.291 Y103.630 E1.49481
G1 X89.770 Y100.995 E1.59377
G1 X89.242 Y98.000 E1.69273
G1 X89.770 Y95.005 E1.79169
G1 X91.291 Y92.370 E1.89066
G1 X91.652 Y92.068 E1.90598
G1 X93.621 Y90.415 E1.98962
G1 X96.479 Y89.375 E2.08858
G1 X99.521 Y89.375 E2.18754
G1 X102.379 Y90.415 E2.28650
G1 X104.709 Y92.370 E2.38547
G1 X106.230 Y95.005 E2.48443
G1 X106.758 Y98.000 E2.58339
G1 X106.230 Y100.995 E2.68235
G1 X104.747 Y103.565 E2.77887
G1 X105.220 Y104.059 F7800.000
G1 X102.713 Y106.163 E2.88537 F540.000
G1 X99.637 Y107.282 E2.99187
G1 X96.363 Y107.282 E3.09837
G1 X93.287 Y106.163 E3.20488
G1 X90.780 Y104.059 E3.31138
G1 X89.143 Y101.224 E3.41788
G1 X88.575 Y98.000 E3.52438
G1 X89.143 Y94.776 E3.63088
G1 X90.780 Y91.941 E3.73738
G1 X91.229 Y91.564 E3.75648
G1 X93.287 Y89.837 E3.84388
G1 X96.363 Y88.718 E3.95038
G1 X99.637 Y88.718 E4.05688
G1 X102.713 Y89.837 E4.16338
G1 X105.220 Y91.941 E4.26989
G1 X106.857 Y94.776 E4.37639
G1 X107.425 Y98.000 E4.48289
G1 X106.857 Y101.224 E4.58939
G1 X105.258 Y103.994 E4.69345
G1 X105.731 Y104.487 F7800.000
G1 X103.046 Y106.740 E4.80749 F378.000
G1 X99.753 Y107.939 E4.92153
G1 X96.247 Y107.939 E5.03557
G1 X92.954 Y106.740 E5.14961
G1 X90.269 Y104.487 E5.26365
G1 X88.516 Y101.452 E5.37769
G1 X87.907 Y98.000 E5.49173
G1 X88.516 Y94.548 E5.60577
G1 X90.269 Y91.513 E5.71981
G1 X90.807 Y91.061 E5.74267
G1 X92.954 Y89.260 E5.83385
G1 X96.247 Y88.061 E5.94789
G1 X99.753 Y88.061 E6.06193
G1 X103.046 Y89.260 E6.17597
G1 X105.731 Y91.513 E6.29001
G1 X107.484 Y94.548 E6.40405
G1 X108.093 Y98.000 E6.51809
G1 X107.484 Y101.452 E6.63213
G1 X105.769 Y104.422 E6.74373
G1 X105.245 Y104.372 F7800.000
G1 X105.667 Y94.942 F7800.000
G1 X101.194 Y90.470 E6.94953 F1080.000
G1 X99.728 Y89.936 F7800.000
G1 X105.974 Y96.182 E7.23693 F1080.000
G1 X106.174 Y97.314 E7.27433
G1 X98.691 Y89.831 E7.61864
G1 X97.758 Y89.831 E7.64898
G1 X106.240 Y98.313 E8.03923
G1 X106.100 Y99.105 E8.06542
G1 X96.826 Y89.831 E8.49214
G1 X96.071 Y90.009 E8.51737
G1 X105.960 Y99.898 E8.97239
G1 X105.820 Y100.691 E8.99858
G1 X95.387 Y90.258 E9.47862
G1 X94.703 Y90.507 E9.50230
G1 X105.516 Y101.319 E9.99980
G1 X105.175 Y101.911 E10.02201
G1 X94.020 Y90.756 E10.53527
G1 X93.469 Y91.138 E10.55707
G1 X104.833 Y102.502 E11.07994
G1 X104.492 Y103.093 E11.10215
G1 X92.962 Y91.564 E11.63265
G1 X92.455 Y91.989 E11.65418
G1 X104.052 Y103.585 E12.18776
G1 X103.545 Y104.011 E12.20930
G1 X91.948 Y92.415 E12.74287
G1 X91.508 Y92.907 E12.76436
G1 X103.038 Y104.436 E13.29485
G1 X102.531 Y104.862 E13.31639
G1 X91.167 Y93.498 E13.83926
G1 X90.825 Y94.089 E13.86147
G1 X101.980 Y105.244 E14.37473
G1 X101.297 Y105.493 E14.39840
G1 X90.484 Y94.681 E14.89591
G1 X90.180 Y95.309 E14.91862
G1 X100.613 Y105.742 E15.39867
G1 X99.929 Y105.991 E15.42234
G1 X90.040 Y96.102 E15.87736
G1 X89.900 Y96.895 E15.90355
G1 X99.174 Y106.169 E16.33027
G1 X98.242 Y106.169 E16.36061
G1 X89.760 Y97.687 E16.75086
G1 X89.826 Y98.686 E16.78341
G1 X97.309 Y106.169 E17.12772
G1 X96.272 Y106.064 E17.16164
G1 X90.026 Y99.818 E17.44904
G1 X90.333 Y101.058 E17.49059
G1 X94.806 Y105.530 E17.69639
G1 X91.824 Y103.481 F7800.000
G1 X91.607 Y103.264 E17.70637 F1080.000
G1 X104.176 Y92.519 F7800.000
G1 X104.393 Y92.736 E17.71635 F1080.000
M106 S255
G1 F1800.000 E16.71635
G92 E0
G1 Z0.750 F7800.000
G1 X105.031 Y103.900 F7800.000
G1 E1.00000 F1800.000
G1 X102.589 Y105.949 E1.09019 F884.766
G1 X99.594 Y107.039 E1.18039
G1 X96.406 Y107.039 E1.27058
G1 X93.411 Y105.949 E1.36078
G1 X90.969 Y103.900 E1.45097
G1 X89.375 Y101.139 E1.54117
G1 X88.821 Y98.000 E1.63136
G1 X89.375 Y94.861 E1.72156
G1 X90.969 Y92.100 E1.81175
G1 X92.641 Y90.697 E1.87350
G1 X93.411 Y90.051 E1.90195
G1 X96.406 Y88.961 E1.99214
G1 X99.594 Y88.961 E2.08233
G1 X102.589 Y90.051 E2.17253
G1 X105.031 Y92.100 E2.26272
G1 X106.625 Y94.861 E2.35292
G1 X107.179 Y98.000 E2.44311
G1 X106.625 Y101.139 E2.53331
G1 X105.069 Y103.835 E2.62138
G1 X105.420 Y104.226 F7800.000
G1 X102.843 Y106.389 E2.71656 F884.766
G1 X99.682 Y107.539 E2.81175
G1 X96.318 Y107.539 E2.90693
G1 X93.157 Y106.389 E3.00211
G1 X90.580 Y104.226 E3.09730
G1 X88.898 Y101.313 E3.19248
G1 X88.314 Y98.000 E3.28766
G1 X88.898 Y94.687 E3.38285
G1 X90.580 Y91.774 E3.47803
G1 X93.157 Y89.611 E3.57321
G1 X96.318 Y88.461 E3.66840
G1 X99.682 Y88.461 E3.76358
G1 X102.843 Y89.611 E3.85877
G1 X105.420 Y91.774 E3.95395
G1 X107.102 Y94.687 E4.04913
G1 X107.686 Y98.000 E4.14432
G1 X107.102 Y101.313 E4.23950
G1 X105.458 Y104.161 E4.33256
G1 X105.809 Y104.553 F7800.000
G1 X103.097 Y106.828 E4.43273 F619.336
G1 X99.770 Y108.039 E4.53291
G1 X96.230 Y108.039 E4.63308
G1 X92.903 Y106.828 E4.73325
G1 X90.191 Y104.553 E4.83342
G1 X88.421 Y101.487 E4.93360
G1 X87.806 Y98.000 E5.03377
G1 X88.421 Y94.513 E5.13394
G1 X90.191 Y91.447 E5.23411
G1 X92.903 Y89.172 E5.33429
G1 X96.230 Y87.961 E5.43446
G1 X99.770 Y87.961 E5.53463
G1 X103.097 Y89.172 E5.63480
G1 X105.809 Y91.447 E5.73498
G1 X107.579 Y94.513 E5.83515
G1 X108.194 Y98.000 E5.93532
G1 X107.579 Y101.487 E6.03549
G1 X105.847 Y104.488 E6.13355
G1 X105.323 Y104.437 F7800.000
G1 X104.584 Y103.823 F7800.000
G1 X104.801 Y103.606 E6.14257 F1769.532
G1 X105.828 Y101.827 F7800.000
G1 X101.780 Y105.874 E6.31088 F1769.532
G1 X100.598 Y106.305 F7800.000
G1 X106.382 Y100.521 E6.55142 F1769.532
G1 X106.543 Y99.608 E6.57868
G1 X99.458 Y106.692 E6.87330
G1 X98.706 Y106.692 E6.89541
G1 X106.704 Y98.695 E7.22799
G1 X106.800 Y97.847 E7.25307
G1 X97.954 Y106.692 E7.62089
G1 X97.203 Y106.692 E7.64300
G1 X106.687 Y97.208 E8.03741
G1 X106.574 Y96.569 E8.05650
G1 X96.455 Y106.688 E8.47730
G1 X95.904 Y106.487 E8.49455
G1 X106.461 Y95.930 E8.93359
G1 X106.349 Y95.291 E8.95268
G1 X95.353 Y106.287 E9.40995
G1 X94.801 Y106.086 E9.42720
G1 X106.152 Y94.735 E9.89923
G1 X105.877 Y94.259 E9.91542
G1 X94.250 Y105.885 E10.39893
G1 X93.699 Y105.685 E10.41618
G1 X105.602 Y93.782 E10.91116
G1 X105.327 Y93.305 E10.92735
G1 X93.261 Y105.371 E11.42910
G1 X92.852 Y105.028 E11.44479
G1 X105.051 Y92.828 E11.95209
G1 X104.767 Y92.361 E11.96819
G1 X92.443 Y104.685 E12.48068
G1 X92.035 Y104.341 E12.49637
G1 X104.374 Y92.002 E13.00953
G1 X103.965 Y91.659 E13.02522
G1 X91.626 Y103.998 E13.53838
G1 X91.233 Y103.639 E13.55403
G1 X103.557 Y91.316 E14.06652
G1 X103.148 Y90.972 E14.08221
G1 X90.949 Y103.172 E14.58951
G1 X90.673 Y102.695 E14.60570
G1 X102.739 Y90.629 E15.10745
G1 X102.301 Y90.315 E15.12329
G1 X90.398 Y102.218 E15.61828
G1 X90.123 Y101.741 E15.63446
G1 X101.750 Y90.115 E16.11797
G1 X101.199 Y89.914 E16.13522
G1 X89.848 Y101.265 E16.60725
G1 X89.651 Y100.709 E16.62457
G1 X100.647 Y89.713 E17.08185
G1 X100.096 Y89.513 E17.09910
G1 X89.539 Y100.070 E17.53814
G1 X89.426 Y99.431 E17.55723
G1 X99.545 Y89.312 E17.97803
G1 X98.797 Y89.308 E18.00001
G1 X89.313 Y98.792 E18.39442
G1 X89.200 Y98.153 E18.41351
G1 X98.046 Y89.308 E18.78133
G1 X97.294 Y89.308 E18.80344
G1 X89.296 Y97.305 E19.13602
G1 X89.457 Y96.392 E19.16328
G1 X96.542 Y89.308 E19.45790
G1 X95.402 Y89.695 F7800.000
G1 X89.618 Y95.479 E19.69844 F1769.532
G1 X90.172 Y94.173 F7800.000
G1 X94.220 Y90.126 E19.86676 F1769.532
G1 X91.416 Y92.177 F7800.000
G1 X91.199 Y92.394 E19.87578 F1769.532
G1 F1800.000 E18.87578
G92 E0
G1 Z1.150 F7800.000
G1 X104.939 Y103.823 F7800.000
G1 E1.00000 F1800.000
G1 X102.529 Y105.845 E1.08901 F873.247
G1 X99.573 Y106.921 E1.17802
G1 X96.427 Y106.921 E1.26703
G1 X93.471 Y105.845 E1.35605
G1 X91.061 Y103.823 E1.44506
G1 X89.488 Y101.098 E1.53407
G1 X88.942 Y98.000 E1.62308
G1 X89.488 Y94.902 E1.71209
G1 X89.886 Y94.213 E1.73459
G1 X91.061 Y92.177 E1.80110
G1 X93.471 Y90.155 E1.89011
G1 X96.427 Y89.079 E1.97913
G1 X99.573 Y89.079 E2.06814
G1 X102.529 Y90.155 E2.15715
G1 X104.939 Y92.177 E2.24616
G1 X106.512 Y94.902 E2.33517
G1 X107.058 Y98.000 E2.42418
G1 X106.512 Y101.098 E2.51319
G1 X104.977 Y103.758 E2.60008
G1 X105.328 Y104.149 F7800.000
G1 X102.783 Y106.284 E2.69408 F873.247
G1 X99.661 Y107.421 E2.78808
G1 X96.339 Y107.421 E2.88209
G1 X93.217 Y106.284 E2.97609
G1 X90.672 Y104.149 E3.07009
G1 X89.011 Y101.272 E3.16409
G1 X88.434 Y98.000 E3.25809
G1 X89.011 Y94.728 E3.35209
G1 X89.453 Y93.963 E3.37708
G1 X90.672 Y91.851 E3.44609
G1 X93.217 Y89.716 E3.54009
G1 X96.339 Y88.579 E3.63409
G1 X99.661 Y88.579 E3.72809
G1 X102.783 Y89.716 E3.82209
G1 X105.328 Y91.851 E3.91609
G1 X106.989 Y94.728 E4.01009
G1 X107.566 Y98.000 E4.10409
G1 X106.989 Y101.272 E4.19809
G1 X105.366 Y104.084 E4.28997
G1 X105.717 Y104.475 F7800.000
G1 X103.037 Y106.724 E4.38896 F611.273
G1 X99.749 Y107.921 E4.48795
G1 X96.251 Y107.921 E4.58694
G1 X92.963 Y106.724 E4.68593
G1 X90.283 Y104.475 E4.78492
G1 X88.534 Y101.445 E4.88391
G1 X87.926 Y98.000 E4.98290
G1 X88.534 Y94.555 E5.08189
G1 X89.020 Y93.713 E5.10938
G1 X90.283 Y91.525 E5.18088
G1 X92.963 Y89.276 E5.27986
G1 X96.251 Y88.079 E5.37885
G1 X99.749 Y88.079 E5.47784
G1 X103.037 Y89.276 E5.57683
G1 X105.717 Y91.525 E5.67582
G1 X107.466 Y94.555 E5.77481
G1 X108.074 Y98.000 E5.87380
G1 X107.466 Y101.445 E5.97279
G1 X105.754 Y104.410 E6.06966
G1 X105.230 Y104.360 F7800.000
G1 X96.562 Y106.574 F7800.000
G1 X89.573 Y99.585 E6.36028 F1746.494
G1 X89.415 Y98.685 E6.38716
G1 X97.304 Y106.574 E6.71522
G1 X98.045 Y106.574 E6.73703
G1 X89.321 Y97.849 E7.09985
G1 X89.432 Y97.219 E7.11867
G1 X98.787 Y106.574 E7.50771
G1 X99.524 Y106.569 E7.52938
G1 X89.543 Y96.588 E7.94445
G1 X89.654 Y95.958 E7.96328
G1 X100.068 Y106.371 E8.39633
G1 X100.611 Y106.174 E8.41335
G1 X89.765 Y95.327 E8.86439
G1 X89.959 Y94.780 E8.88148
G1 X101.155 Y105.976 E9.34707
G1 X101.699 Y105.778 E9.36409
G1 X90.231 Y94.309 E9.84100
G1 X90.502 Y93.839 E9.85696
G1 X102.243 Y105.580 E10.34520
G1 X102.674 Y105.270 E10.36083
G1 X90.773 Y93.369 E10.85573
G1 X91.045 Y92.899 E10.87170
G1 X103.078 Y104.932 E11.37208
G1 X103.481 Y104.593 E11.38756
G1 X91.325 Y92.438 E11.89305
G1 X91.713 Y92.083 E11.90849
G1 X103.884 Y104.255 E12.41464
G1 X104.287 Y103.917 E12.43012
G1 X92.116 Y91.745 E12.93628
G1 X92.519 Y91.407 E12.95176
G1 X104.675 Y103.562 E13.45725
G1 X104.955 Y103.101 E13.47312
G1 X92.922 Y91.068 E13.97351
G1 X93.326 Y90.730 E13.98899
G1 X105.227 Y102.631 E14.48389
G1 X105.498 Y102.161 E14.49986
G1 X93.757 Y90.420 E14.98809
G1 X94.301 Y90.222 E15.00511
G1 X105.769 Y101.691 E15.48202
G1 X106.041 Y101.220 E15.49799
G1 X94.845 Y90.024 E15.96358
G1 X95.389 Y89.826 E15.98059
G1 X106.235 Y100.673 E16.43164
G1 X106.346 Y100.042 E16.45046
G1 X95.932 Y89.629 E16.88352
G1 X96.476 Y89.431 E16.90053
G1 X106.457 Y99.412 E17.31560
G1 X106.568 Y98.781 E17.33443
G1 X97.213 Y89.426 E17.72346
G1 X97.955 Y89.426 E17.74527
G1 X106.679 Y98.151 E18.10809
G1 X106.585 Y97.315 E18.13282
G1 X98.696 Y89.426 E18.46088
G1 X99.438 Y89.426 E18.48269
G1 X106.427 Y96.415 E18.77331
G1 X106.268 Y95.514 E18.80019
G1 X100.562 Y89.808 E19.03747
G1 X101.728 Y90.233 F7800.000
G1 X105.721 Y94.226 E19.20354 F1746.494
G1 X104.708 Y92.472 F7800.000
G1 X104.491 Y92.255 E19.21256 F1746.494
G1 X95.438 Y106.192 F7800.000
G1 X89.732 Y100.486 E19.44984 F1746.494
G1 X90.279 Y101.774 F7800.000
G1 X94.272 Y105.767 E19.61591 F1746.494
G1 X91.509 Y103.745 F7800.000
G1 X91.292 Y103.528 E19.62493 F1746.494
G1 F1800.000 E18.62493
G92 E0
G1 Z1.550 F7800.000
G1 X104.788 Y103.696 F7800.000
G1 E1.00000 F1800.000
G1 X102.431 Y105.674 E1.08708 F627.784
G1 X99.539 Y106.727 E1.17415
G1 X96.461 Y106.727 E1.26123
G1 X93.569 Y105.674 E1.34831
G1 X91.212 Y103.696 E1.43539
G1 X89.673 Y101.031 E1.52246
G1 X89.139 Y98.000 E1.60954
G1 X89.673 Y94.969 E1.69662
G1 X91.212 Y92.304 E1.78369
G1 X93.569 Y90.326 E1.87077
G1 X96.461 Y89.273 E1.95785
G1 X99.539 Y89.273 E2.04493
G1 X102.431 Y90.326 E2.13200
G1 X104.788 Y92.304 E2.21908
G1 X106.327 Y94.969 E2.30616
G1 X106.861 Y98.000 E2.39324
G1 X106.327 Y101.031 E2.48031
G1 X104.826 Y103.631 E2.56527
G1 X105.177 Y104.022 F7800.000
G1 X102.685 Y106.114 E2.65733 F627.784
G1 X99.627 Y107.227 E2.74940
G1 X96.373 Y107.227 E2.84147
G1 X93.315 Y106.114 E2.93353
G1 X90.823 Y104.022 E3.02560
G1 X89.196 Y101.204 E3.11767
G1 X88.631 Y98.000 E3.20973
G1 X89.196 Y94.796 E3.30180
G1 X90.823 Y91.978 E3.39386
G1 X93.315 Y89.886 E3.48593
G1 X94.068 Y89.612 E3.50860
G1 X96.373 Y88.773 E3.57800
G1 X99.627 Y88.773 E3.67006
G1 X102.685 Y89.886 E3.76213
G1 X105.177 Y91.978 E3.85420
G1 X106.804 Y94.796 E3.94626
G1 X107.369 Y98.000 E4.03833
G1 X106.804 Y101.204 E4.13039
G1 X105.215 Y103.957 E4.22034
G1 X105.566 Y104.349 F7800.000
G1 X102.938 Y106.554 E4.31739 F600.000
G1 X99.715 Y107.727 E4.41445
G1 X96.285 Y107.727 E4.51150
G1 X93.062 Y106.554 E4.60856
G1 X90.434 Y104.349 E4.70561
G1 X88.719 Y101.378 E4.80267
G1 X88.123 Y98.000 E4.89972
G1 X88.719 Y94.622 E4.99678
G1 X90.434 Y91.651 E5.09384
G1 X93.062 Y89.446 E5.19089
G1 X93.897 Y89.142 E5.21606
G1 X96.285 Y88.273 E5.28795
G1 X99.715 Y88.273 E5.38500
G1 X102.938 Y89.446 E5.48206
G1 X105.566 Y91.651 E5.57911
G1 X107.281 Y94.622 E5.67617
G1 X107.877 Y98.000 E5.77322
G1 X107.281 Y101.378 E5.87028
G1 X105.604 Y104.284 E5.96521
G1 X105.080 Y104.233 F7800.000
G1 X100.128 Y106.122 F7800.000
G1 X100.320 Y105.930 E5.97321 F1255.568
G1 X100.514 Y105.982 E5.97910
G1 X101.861 Y105.491 E6.02126
G1 X102.462 Y104.890 E6.04627
G1 X102.229 Y104.020 E6.07274
G1 X103.502 Y102.748 E6.12567
G1 X104.371 Y102.981 E6.15213
G1 X105.333 Y102.019 E6.19210
G1 X105.603 Y101.552 E6.20798
G1 X105.411 Y100.838 E6.22970
G1 X106.112 Y100.138 E6.25883
G1 X106.477 Y97.935 E6.32449
G1 X106.084 Y98.329 E6.34086
G1 X106.293 Y99.110 E6.36465
G1 X106.269 Y99.246 E6.36869
G1 X105.044 Y100.471 E6.41965
G1 X104.175 Y100.238 E6.44612
G1 X102.902 Y101.511 E6.49905
G1 X103.135 Y102.380 E6.52551
G1 X101.862 Y103.653 E6.57844
G1 X100.992 Y103.420 E6.60491
G1 X99.720 Y104.693 E6.65784
G1 X99.953 Y105.562 E6.68431
G1 X99.155 Y106.360 E6.71748
G1 X97.318 Y106.360 E6.77150
G1 X97.443 Y106.235 E6.77671
G1 X97.210 Y105.365 E6.80317
G1 X98.483 Y104.093 E6.85611
G1 X99.352 Y104.325 E6.88257
G1 X100.625 Y103.053 E6.93550
G1 X100.392 Y102.183 E6.96197
G1 X101.665 Y100.910 E7.01490
G1 X102.534 Y101.143 E7.04137
G1 X103.807 Y99.871 E7.09430
G1 X103.574 Y99.001 E7.12076
G1 X104.847 Y97.728 E7.17369
G1 X105.716 Y97.961 E7.20016
G1 X106.367 Y97.310 E7.22723
G1 X106.022 Y95.353 E7.28566
G1 X105.519 Y95.219 E7.30097
G1 X104.247 Y96.492 E7.35390
G1 X104.480 Y97.361 E7.38037
G1 X103.207 Y98.634 E7.43330
