; generated by Slic3r 1.1.6 on 2014-11-27 at 11:58:13

; perimeters extrusion width = 0.50mm
; infill extrusion width = 0.52mm
; solid infill extrusion width = 0.52mm
; top infill extrusion width = 0.52mm

G21 ; set units to millimeters
M107
M104 S200 ; set temperature
G28 ; home all axes
G1 Z5 F5000 ; lift nozzle

M109 S200 ; wait for temperature to be reached
G90 ; use absolute coordinates
G92 E0
M82 ; use absolute distances for extrusion
G1 F1800.000 E-1.00000
G92 E0
G1 Z0.350 F7800.000
G1 X91.382 Y82.755 F7800.000
G1 E1.00000 F1800.000
G1 X93.133 Y81.480 E1.07046 F600.000
G1 X93.499 Y81.296 E1.08378
G1 X95.494 Y80.662 E1.15190
G1 X95.924 Y80.597 E1.16605
G1 X97.912 Y80.596 E1.23072
G1 X98.343 Y80.661 E1.24490
G1 X100.347 Y81.300 E1.31333
G1 X100.712 Y81.484 E1.32663
G1 X102.702 Y83.019 E1.40842
G1 X102.946 Y83.295 E1.42040
G1 X104.392 Y85.990 E1.51989
G1 X104.605 Y86.894 E1.55013
G1 X106.121 Y95.761 E1.84280
G1 X106.158 Y96.475 E1.86607
G1 X106.096 Y98.282 E1.92488
G1 X104.464 Y107.768 E2.23804
G1 X104.377 Y108.084 E2.24873
G1 X102.856 Y110.826 E2.35074
G1 X102.612 Y111.091 E2.36246
G1 X100.620 Y112.572 E2.44322
G1 X100.140 Y112.803 E2.46056
G1 X98.298 Y113.348 E2.52306
G1 X97.867 Y113.410 E2.53722
G1 X95.969 Y113.410 E2.59897
G1 X95.539 Y113.348 E2.61310
G1 X93.591 Y112.752 E2.67937
G1 X93.225 Y112.575 E2.69262
G1 X91.334 Y111.207 E2.76855
G1 X82.767 Y102.335 E3.16978
G1 X81.651 Y100.785 E3.23194
G1 X81.456 Y100.409 E3.24573
G1 X80.788 Y98.369 E3.31558
G1 X80.721 Y97.938 E3.32977
G1 X80.721 Y95.892 E3.39631
G1 X80.788 Y95.461 E3.41050
G1 X81.461 Y93.410 E3.48074
G1 X81.651 Y93.045 E3.49413
G1 X82.815 Y91.446 E3.55849
G1 X91.329 Y82.808 E3.95310
G1 F1800.000 E2.95310
G92 E0
G1 X97.644 Y106.142 F7800.000
G1 E1.00000 F1800.000
G1 X97.503 Y106.296 E1.00680 F600.000
G1 X97.246 Y106.420 E1.01606
G1 X96.919 Y106.467 E1.02682
G1 X96.593 Y106.420 E1.03755
G1 X96.335 Y106.296 E1.04685
G1 X96.194 Y106.143 E1.05362
G1 X96.157 Y106.004 E1.05829
G1 X96.194 Y105.866 E1.06294
G1 X96.335 Y105.713 E1.06972
G1 X96.593 Y105.589 E1.07901
G1 X96.919 Y105.542 E1.08973
G1 X97.246 Y105.589 E1.10050
G1 X97.503 Y105.713 E1.10976
G1 X97.644 Y105.867 E1.11657
G1 X97.682 Y106.004 E1.12120
G1 X97.664 Y106.070 E1.12343
G1 X97.436 Y106.129 F7800.000
G1 F1800.000 E0.12343
G92 E0
G1 X98.177 Y95.694 F7800.000
G1 E1.00000 F1800.000
G1 X97.630 Y95.329 E1.02138 F600.000
G1 X96.919 Y95.188 E1.04498
G1 X96.209 Y95.329 E1.06854
G1 X95.471 Y95.821 E1.09739
G1 X95.173 Y95.420 E1.11366
G1 X95.655 Y95.024 E1.13396
G1 X96.041 Y94.818 E1.14817
G1 X96.708 Y94.662 E1.17046
G1 X97.362 Y94.684 E1.19175
G1 X97.790 Y94.814 E1.20631
G1 X98.170 Y95.017 E1.22033
G1 X98.479 Y95.326 E1.23454
G1 X98.225 Y95.636 E1.24760
G1 X97.970 Y95.239 F7800.000
G1 F1800.000 E0.24760
G92 E0
G1 X96.919 Y88.638 F7800.000
G1 E1.00000 F1800.000
G1 X96.648 Y88.571 E1.00907 F600.000
G1 X96.424 Y88.390 E1.01845
G1 X96.341 Y88.348 E1.02150
G1 X96.196 Y88.185 E1.02858
G1 X96.156 Y88.029 E1.03381
G1 X96.196 Y87.873 E1.03905
G1 X96.341 Y87.710 E1.04613
G1 X96.596 Y87.582 E1.05544
G1 X96.919 Y87.533 E1.06606
G1 X97.242 Y87.582 E1.07670
G1 X97.497 Y87.710 E1.08599
G1 X97.642 Y87.874 E1.09309
G1 X97.683 Y88.029 E1.09831
G1 X97.642 Y88.184 E1.10354
G1 X97.497 Y88.348 E1.11064
G1 X97.414 Y88.390 E1.11369
G1 X97.190 Y88.571 E1.12305
G1 X96.992 Y88.620 E1.12969
G1 X96.800 Y88.386 F7800.000
G1 F1800.000 E0.12969
G92 E0
G1 X88.516 Y96.340 F7800.000
G1 E1.00000 F1800.000
G1 X88.737 Y96.641 E1.01214 F600.000
G1 X88.801 Y96.914 E1.02126
G1 X88.737 Y97.189 E1.03047
G1 X88.516 Y97.490 E1.04260
G1 X88.345 Y97.636 E1.04993
G1 X88.176 Y97.680 E1.05561
G1 X88.007 Y97.636 E1.06129
G1 X87.835 Y97.489 E1.06864
G1 X87.703 Y97.235 E1.07795
G1 X87.653 Y96.915 E1.08850
G1 X87.703 Y96.595 E1.09905
G1 X87.835 Y96.341 E1.10836
G1 X88.007 Y96.194 E1.11571
G1 X88.176 Y96.150 E1.12140
G1 X88.345 Y96.194 E1.12707
G1 X88.459 Y96.292 E1.13196
G1 X88.392 Y96.693 F7800.000
G1 F1800.000 E0.13196
G92 E0
G1 X99.049 Y95.397 F7800.000
G1 E1.00000 F1800.000
G1 X98.865 Y96.319 E1.03060 F600.000
G1 X98.912 Y96.503 E1.03678
G1 X98.955 Y96.941 E1.05110
G1 X98.937 Y97.332 E1.06381
G1 X98.842 Y97.712 E1.07658
G1 X98.747 Y97.916 E1.08388
G1 X98.406 Y98.405 E1.10327
G1 X98.086 Y98.664 E1.11668
G1 X97.738 Y98.872 E1.12988
G1 X97.591 Y98.923 E1.13494
G1 X97.331 Y98.987 E1.14365
G1 X96.917 Y99.043 E1.15724
G1 X96.505 Y98.987 E1.17076
G1 X96.248 Y98.923 E1.17939
G1 X96.106 Y98.875 E1.18427
G1 X95.750 Y98.663 E1.19775
G1 X95.439 Y98.412 E1.21074
G1 X95.102 Y97.909 E1.23045
G1 X94.993 Y97.698 E1.23816
G1 X94.897 Y97.317 E1.25094
G1 X94.863 Y96.936 E1.26339
G1 X94.907 Y96.626 E1.27357
G1 X94.709 Y95.505 E1.31062
M106 S255
G1 F1800.000 E0.31062
G92 E0
G1 Z0.750 F7800.000
G1 X96.314 Y105.526 F7800.000
G1 E1.00000 F1800.000
G1 X96.597 Y105.311 E1.01007 F600.000
G1 X96.919 Y105.238 E1.01939
G1 X97.242 Y105.311 E1.02877
G1 X97.524 Y105.526 E1.03882
G1 X97.626 Y105.699 E1.04448
G1 X97.734 Y105.817 E1.04902
G1 X97.786 Y106.005 E1.05452
G1 X97.734 Y106.192 E1.06003
G1 X97.563 Y106.378 E1.06717
G1 X97.276 Y106.517 E1.07620
G1 X96.919 Y106.568 E1.08641
G1 X96.563 Y106.517 E1.09658
G1 X96.275 Y106.378 E1.10564
G1 X96.104 Y106.193 E1.11276
G1 X96.053 Y106.004 E1.11829
G1 X96.104 Y105.817 E1.12379
G1 X96.213 Y105.699 E1.12831
G1 X96.276 Y105.591 E1.13185
G1 X96.657 Y105.620 F7800.000
G1 X96.538 Y105.830 F7800.000
G1 X96.698 Y105.670 E1.13853 F600.000
G1 X97.391 Y106.076 E1.16214
G1 X97.448 Y106.018 E1.16452
G1 F1800.000 E0.16452
G92 E0
G1 X96.919 Y98.803 F7800.000
G1 E1.00000 F1800.000
G1 X96.247 Y98.669 E1.01937 F600.000
G1 X95.678 Y98.288 E1.03877
G1 X95.297 Y97.719 E1.05815
G1 X95.162 Y97.047 E1.07754
G1 X95.297 Y96.374 E1.09695
G1 X95.678 Y95.804 E1.11636
G1 X96.248 Y95.423 E1.13575
G1 X96.919 Y95.290 E1.15511
G1 X97.591 Y95.423 E1.17451
G1 X98.161 Y95.804 E1.19390
G1 X98.543 Y96.375 E1.21332
G1 X98.676 Y97.047 E1.23272
G1 X98.542 Y97.719 E1.25209
G1 X98.161 Y98.288 E1.27148
G1 X97.592 Y98.670 E1.29088
G1 X96.993 Y98.788 E1.30816
G1 X96.641 Y99.219 F7800.000
G1 X96.927 Y99.564 F7800.000
G1 X96.403 Y99.511 E1.32307 F600.000
G1 X95.898 Y99.359 E1.33798
G1 X95.839 Y99.369 E1.33969
G1 X95.191 Y98.955 E1.36145
G1 X95.029 Y98.823 E1.36735
G1 X94.769 Y98.434 E1.38058
G1 X94.652 Y98.201 E1.38796
G1 X94.541 Y98.066 E1.39290
G1 X94.469 Y97.930 E1.39726
G1 X94.327 Y97.371 E1.41358
G1 X94.239 Y96.926 E1.42643
G1 X94.263 Y96.843 E1.42887
G1 X94.306 Y96.395 E1.44159
G1 X94.437 Y95.965 E1.45430
G1 X94.448 Y95.867 E1.45710
G1 X94.675 Y95.443 E1.47072
G1 X94.750 Y95.378 E1.47352
G1 X95.035 Y95.031 E1.48622
G1 X95.444 Y94.696 E1.50118
G1 X95.839 Y94.461 E1.51418
G1 X96.683 Y94.286 E1.53858
G1 X96.744 Y94.246 E1.54064
G1 X96.896 Y94.231 E1.54496
G1 X96.992 Y94.258 E1.54777
G1 X97.439 Y94.302 E1.56048
G1 X97.870 Y94.433 E1.57321
G1 X97.955 Y94.443 E1.57565
G1 X98.324 Y94.690 E1.58822
G1 X98.519 Y94.857 E1.59550
G1 X98.698 Y94.960 E1.60131
G1 X98.795 Y95.040 E1.60488
G1 X99.140 Y95.503 E1.62121
G1 X99.392 Y95.880 E1.63405
G1 X99.402 Y95.965 E1.63649
G1 X99.536 Y96.406 E1.64951
G1 X99.574 Y96.613 E1.65546
G1 X99.558 Y96.777 E1.66013
G1 X99.575 Y97.210 E1.67239
G1 X99.536 Y97.425 E1.67857
G1 X99.389 Y97.908 E1.69286
G1 X98.991 Y98.605 E1.71556
G1 X98.822 Y98.811 E1.72312
G1 X98.619 Y98.857 E1.72900
G1 X97.945 Y99.389 E1.75329
G1 X97.439 Y99.528 E1.76815
G1 X96.998 Y99.572 E1.78067
G1 X96.696 Y99.121 F7800.000
G1 F1800.000 E0.78067
G92 E0
G1 X94.811 Y96.224 F7800.000
G1 E1.00000 F1800.000
G1 X95.082 Y95.771 E1.02080 F600.000
G1 X95.348 Y95.430 E1.03782
G1 X95.746 Y95.127 E1.05755
G1 X96.045 Y94.941 E1.07143
G1 X96.887 Y94.768 E1.10528
G1 X97.334 Y94.828 E1.12307
G1 X97.772 Y94.938 E1.14083
G1 X98.016 Y95.095 E1.15231
G1 X98.329 Y95.333 E1.16777
G1 X98.378 Y95.268 F7800.000
G1 X98.919 Y96.054 E1.18416 F600.000
G1 X98.964 Y96.153 E1.18603
G1 X99.086 Y96.634 E1.19455
G1 X99.122 Y97.009 E1.20103
G1 X99.116 Y97.177 E1.20392
G1 X98.995 Y97.694 E1.21304
G1 X98.939 Y97.848 E1.21587
G1 X98.584 Y98.426 E1.22752
G1 X98.135 Y98.737 E1.23690
G1 X98.130 Y98.760 E1.23730
G1 X97.785 Y99.013 E1.24466
G1 X97.716 Y99.040 E1.24593
G1 X97.359 Y99.129 E1.25224
G1 X97.003 Y99.182 E1.25844
G1 X96.894 Y99.182 E1.26030
G1 X96.481 Y99.120 E1.26749
G1 X96.125 Y99.032 E1.27379
G1 X95.924 Y98.945 E1.27754
G1 X95.361 Y98.560 E1.28927
G1 X94.900 Y97.849 E1.30383
G1 X94.837 Y97.632 E1.30771
G1 X94.720 Y97.085 E1.31733
G1 X94.712 Y96.945 E1.31973
G1 X94.782 Y96.490 E1.32764
G1 X94.844 Y96.243 E1.33201
G1 F1800.000 E0.33201
G92 E0
G1 X96.919 Y88.531 F7800.000
G1 E1.00000 F1800.000
G1 X96.710 Y88.361 E1.00763 F600.000
G1 X96.512 Y87.999 E1.01930
G1 X96.919 Y87.938 E1.03096
G1 X97.326 Y87.999 E1.04261
G1 X97.128 Y88.362 E1.05430
G1 X96.978 Y88.484 E1.05978
G1 X96.919 Y88.995 F7800.000
G1 X96.603 Y88.918 E1.06899 F600.000
G1 X96.319 Y88.687 E1.07934
G1 X96.119 Y88.323 E1.09111
G1 X96.052 Y88.029 E1.09963
G1 X96.106 Y87.825 E1.10558
G1 X96.278 Y87.630 E1.11297
G1 X96.566 Y87.485 E1.12207
G1 X96.919 Y87.432 E1.13218
G1 X97.273 Y87.485 E1.14231
G1 X97.560 Y87.630 E1.15139
G1 X97.733 Y87.825 E1.15878
G1 X97.786 Y88.029 E1.16475
G1 X97.719 Y88.322 E1.17324
G1 X97.519 Y88.688 E1.18504
G1 X97.236 Y88.918 E1.19537
G1 X96.992 Y88.977 E1.20247
G1 X96.779 Y88.701 F7800.000
G1 F1800.000 E0.20247
G92 E0
G1 X88.125 Y97.345 F7800.000
G1 E1.00000 F1800.000
G1 X88.058 Y96.915 E1.01231 F600.000
G1 X88.125 Y96.485 E1.02462
G1 X88.510 Y96.701 E1.03711
G1 X88.604 Y96.820 E1.04141
G1 X88.627 Y96.914 E1.04415
G1 X88.604 Y97.010 E1.04694
G1 X88.510 Y97.129 E1.05123
G1 X88.190 Y97.308 E1.06159
G1 X87.871 Y97.652 F7800.000
G1 X87.756 Y97.553 E1.06590 F600.000
G1 X87.607 Y97.267 E1.07502
G1 X87.552 Y96.915 E1.08510
G1 X87.607 Y96.563 E1.09518
G1 X87.756 Y96.277 E1.10430
G1 X87.959 Y96.103 E1.11189
G1 X88.176 Y96.047 E1.11822
G1 X88.486 Y96.114 E1.12718
G1 X88.840 Y96.313 E1.13866
G1 X89.065 Y96.596 E1.14891
G1 X89.140 Y96.914 E1.15815
G1 X89.065 Y97.234 E1.16744
G1 X88.840 Y97.517 E1.17769
G1 X88.486 Y97.716 E1.18917
G1 X88.176 Y97.783 E1.19814
G1 X87.959 Y97.727 E1.20447
G1 X87.928 Y97.701 E1.20563
G1 X87.899 Y97.502 F7800.000
G1 F1800.000 E0.20563
G92 E0
G1 Z1.150 F7800.000
G1 X96.465 Y105.998 F7800.000
G1 E1.00000 F1800.000
G1 X96.695 Y105.605 E1.01287 F600.000
G1 X96.813 Y105.516 E1.01707
G1 X96.919 Y105.492 E1.02013
G1 X97.026 Y105.516 E1.02323
G1 X97.143 Y105.605 E1.02740
G1 X97.373 Y105.998 E1.04028
G1 X96.919 Y106.063 E1.05326
G1 X96.539 Y106.009 E1.06411
G1 X96.104 Y106.193 F7800.000
G1 X96.050 Y105.992 E1.06998 F600.000
G1 X96.118 Y105.602 E1.08119
G1 X96.314 Y105.267 E1.09216
G1 X96.597 Y105.052 E1.10224
G1 X96.919 Y104.979 E1.11156
G1 X97.242 Y105.052 E1.12093
G1 X97.524 Y105.267 E1.13099
G1 X97.720 Y105.602 E1.14197
G1 X97.789 Y105.992 E1.15317
G1 X97.734 Y106.192 E1.15905
G1 X97.563 Y106.378 E1.16618
G1 X97.276 Y106.517 E1.17520
G1 X96.919 Y106.568 E1.18542
G1 X96.563 Y106.517 E1.19559
G1 X96.275 Y106.378 E1.20466
G1 X96.155 Y106.248 E1.20965
G1 X96.225 Y106.024 F7800.000
G1 F1800.000 E0.20965
G92 E0
G1 X96.919 Y98.803 F7800.000
G1 E1.00000 F1800.000
G1 X96.247 Y98.670 E1.01937 F600.000
G1 X95.678 Y98.288 E1.03877
G1 X95.297 Y97.719 E1.05816
G1 X95.162 Y97.047 E1.07754
G1 X95.297 Y96.374 E1.09695
G1 X95.678 Y95.804 E1.11636
G1 X96.247 Y95.423 E1.13575
G1 X96.919 Y95.290 E1.15512
G1 X97.591 Y95.423 E1.17451
G1 X98.161 Y95.804 E1.19390
G1 X98.543 Y96.375 E1.21332
G1 X98.676 Y97.047 E1.23272
G1 X98.542 Y97.719 E1.25209
G1 X98.161 Y98.288 E1.27149
G1 X97.592 Y98.670 E1.29088
G1 X96.993 Y98.788 E1.30816
G1 X96.641 Y99.219 F7800.000
G1 X99.084 Y97.560 F7800.000
G1 X99.160 Y97.174 E1.31931 F600.000
G1 X99.537 Y97.230 E1.33009
G1 X99.516 Y97.441 E1.33610
G1 X99.459 Y97.649 E1.34221
G1 X99.157 Y97.578 E1.35100
G1 X99.204 Y97.142 F7800.000
G1 X99.014 Y96.180 E1.37876 F600.000
G1 X98.522 Y95.443 E1.40381
G1 X97.786 Y94.952 E1.42883
G1 X96.919 Y94.780 E1.45385
G1 X96.053 Y94.952 E1.47884
G1 X95.317 Y95.443 E1.50386
G1 X94.826 Y96.179 E1.52889
G1 X94.632 Y97.149 E1.55688
G1 X94.288 Y97.132 E1.56663
G1 X94.264 Y96.891 E1.57347
G1 X94.270 Y96.717 E1.57841
G1 X94.313 Y96.397 E1.58754
G1 X94.396 Y96.085 E1.59667
G1 X94.548 Y95.717 E1.60794
G1 X94.703 Y95.450 E1.61667
G1 X95.047 Y95.015 E1.63238
G1 X95.445 Y94.724 E1.64633
G1 X95.730 Y94.542 E1.65590
G1 X96.108 Y94.387 E1.66743
G1 X96.383 Y94.319 E1.67546
G1 X96.932 Y94.261 E1.69108
G1 X97.447 Y94.316 E1.70573
G1 X97.868 Y94.426 E1.71804
G1 X98.788 Y95.047 E1.74947
G1 X99.113 Y95.450 E1.76410
G1 X99.353 Y95.899 E1.77851
G1 X99.408 Y95.965 E1.78093
G1 X99.518 Y96.388 E1.79331
G1 X99.574 Y96.902 E1.80794
G1 X99.544 Y97.131 E1.81447
G1 X99.279 Y97.140 E1.82194
G1 X100.054 Y97.083 F7800.000
G1 X100.010 Y97.533 E1.83473 F600.000
G1 X99.805 Y98.190 E1.85421
G1 X97.084 Y100.066 F7800.000
G1 X96.773 Y100.056 E1.86304 F600.000
M106 S255
G1 X96.460 Y100.020 E1.87178 F3600.000
M106 S255
G1 X96.156 Y99.959 E1.88055 F600.000
M106 S255
G1 X96.063 Y99.954 E1.88314 F3600.000
G1 X95.843 Y99.875 E1.88963
M106 S255
G1 X95.348 Y99.648 E1.90503 F600.000
M106 S255
G1 X95.083 Y99.480 E1.91376 F3600.000
M106 S255
G1 X94.686 Y99.149 E1.92839 F600.000
G1 X94.519 Y98.960 E1.93551
M106 S255
G1 X94.282 Y98.677 E1.94577 F3600.000
G1 X94.110 Y98.322 E1.95673
M106 S255
G1 X93.989 Y98.073 E1.96456 F600.000
M106 S255
G1 X93.881 Y97.772 E1.97344 F3600.000
G1 X93.800 Y97.283 E1.98721
M106 S255
G1 X93.763 Y96.907 E1.99790 F600.000
G1 X93.768 Y96.752 E2.00228
M106 S255
G1 X93.792 Y96.522 E2.00872 F3600.000
M106 S255
G1 X93.821 Y96.299 E2.01507 F600.000
G1 X93.881 Y96.076 E2.02161
M106 S255
G1 X93.946 Y95.861 E2.02783 F3600.000
M106 S255
G1 X94.103 Y95.488 E2.03931 F600.000
G1 X94.291 Y95.164 E2.04988
G1 X94.637 Y94.728 E2.06565
M106 S255
G1 X94.681 Y94.668 E2.06772 F3600.000
G1 X94.912 Y94.486 E2.07589
M106 S255
G1 X95.495 Y94.098 E2.09569 F600.000
G1 X95.900 Y93.932 E2.10808
M106 S255
G1 X96.298 Y93.825 E2.11953 F3600.000
G1 X96.507 Y93.804 E2.12536
M106 S255
G1 X96.923 Y93.758 E2.13721 F600.000
G1 X97.538 Y93.824 E2.15470
G1 X97.796 Y93.888 E2.16223
M106 S255
G1 X98.005 Y93.945 E2.16825 F3600.000
M106 S255
G1 X98.109 Y93.977 E2.17131 F600.000
G1 X99.149 Y94.685 E2.20694
G1 X99.400 Y95.011 E2.21856
M106 S255
G1 X99.531 Y95.171 E2.22429 F3600.000
G1 X99.576 Y95.255 E2.22696
M106 S255
G1 X99.771 Y95.620 E2.23865 F600.000
G1 X99.857 Y95.725 E2.24251
G1 X99.890 Y95.833 E2.24570
M106 S255
G1 X99.942 Y96.024 E2.25121 F3600.000
M106 S255
G1 X100.010 Y96.297 E2.25916 F600.000
G1 X100.062 Y96.759 E2.27232
M106 S255
G1 X100.068 Y96.983 E2.27855 F3600.000
M106 S255
G1 X99.805 Y98.190 F7800.000
M106 S255
G1 X99.680 Y98.447 E2.28648 F3600.000
G1 X99.615 Y98.522 E2.28925
M106 S255
G1 X99.396 Y98.874 E2.30098 F600.000
G1 X99.167 Y99.153 E2.31118
G1 X98.997 Y99.278 E2.31716
M106 S255
G1 X98.670 Y99.543 E2.32884 F3600.000
G1 X98.278 Y99.763 E2.34132
M106 S255
G1 X97.973 Y99.889 E2.35068 F600.000
M106 S255
G1 X97.538 Y100.026 E2.36333 F3600.000
G1 X97.084 Y100.066 E2.37599
M106 S255
G1 X100.068 Y96.983 F7800.000
G1 X100.064 Y97.009 E2.37672 F600.000
G1 X100.046 Y96.968 F7800.000
G1 X99.228 Y97.851 F7800.000
G1 X98.878 Y98.430 E2.40337 F600.000
G1 X98.707 Y98.667 E2.41488
G1 X98.292 Y98.998 E2.43578
G1 X97.906 Y99.229 E2.45353
G1 X97.765 Y99.286 E2.45952
G1 X97.409 Y99.377 E2.47397
G1 X96.994 Y99.435 E2.49050
G1 X96.845 Y99.430 E2.49635
G1 X96.165 Y99.308 E2.52359
G1 X95.957 Y99.240 E2.53221
G1 X95.510 Y98.972 E2.55275
G1 X95.275 Y98.801 E2.56421
G1 X95.151 Y98.683 E2.57096
G1 X94.791 Y98.187 E2.59510
G1 X94.649 Y97.899 E2.60774
G1 X94.503 Y97.393 E2.62850
G1 F1800.000 E1.62850
G92 E0
G1 X96.919 Y88.802 F7800.000
G1 E1.00000 F1800.000
G1 X96.710 Y88.633 E1.00763 F600.000
G1 X96.599 Y88.429 E1.01418
G1 X96.539 Y88.059 E1.02481
G1 X96.719 Y87.968 E1.03053
G1 X96.919 Y87.938 E1.03626
G1 X97.120 Y87.968 E1.04199
G1 X97.300 Y88.059 E1.04772
G1 X97.240 Y88.428 E1.05829
G1 X97.128 Y88.633 E1.06492
G1 X96.978 Y88.755 E1.07039
G1 X96.919 Y89.267 F7800.000
G1 X96.603 Y89.190 E1.07960 F600.000
G1 X96.319 Y88.959 E1.08995
