; generated by Slic3r 1.1.6 on 2014-11-27 at 11:57:06

; perimeters extrusion width = 0.50mm
; infill extrusion width = 0.52mm
; solid infill extrusion width = 0.52mm
; top infill extrusion width = 0.52mm

G21 ; set units to millimeters
M107
M104 S200 ; set temperature
G28 ; home all axes
G1 Z5 F5000 ; lift nozzle

M109 S200 ; wait for temperature to be reached
G90 ; use absolute coordinates
G92 E0
M82 ; use absolute distances for extrusion
G1 F1800.000 E-1.00000
G92 E0
G1 Z0.350 F7800.000
G1 X61.984 Y57.941 F7800.000
G1 E1.00000 F1800.000
G1 X63.737 Y56.455 E1.07480 F1080.000
G1 X65.892 Y55.653 E1.14960
G1 X67.100 Y55.543 E1.18906
G1 X98.900 Y55.543 E2.22368
G1 X101.165 Y55.940 E2.29848
G1 X103.159 Y57.084 E2.37328
G1 X104.439 Y58.507 E2.43557
G1 X120.439 Y82.507 E3.37403
G1 X121.365 Y84.612 E3.44883
G1 X121.557 Y86.200 E3.50088
G1 X121.557 Y94.000 E3.75465
G1 X121.107 Y96.406 E3.83428
G1 X104.907 Y138.206 E5.29282
G1 X103.719 Y140.174 E5.36762
G1 X101.932 Y141.620 E5.44242
G1 X98.700 Y142.457 E5.55103
G1 X67.100 Y142.457 E6.57914
G1 X64.835 Y142.060 E6.65394
G1 X62.841 Y140.916 E6.72874
G1 X61.355 Y139.163 E6.80354
G1 X60.553 Y137.008 E6.87834
G1 X60.443 Y135.800 E6.91780
G1 X60.443 Y62.200 E9.31239
G1 X60.840 Y59.935 E9.38719
G1 X61.946 Y58.006 E9.45955
G1 F1800.000 E8.45955
G92 E0
G1 X96.650 Y106.250 F7800.000
G1 E1.00000 F1800.000
G1 X96.650 Y133.750 E1.89472 F540.000
G1 X69.150 Y133.750 E2.78944
G1 X69.150 Y106.250 E3.68415
G1 X96.575 Y106.250 E4.57643
G1 F1800.000 E3.57643
G92 E0
G1 X86.542 Y116.358 F7800.000
G1 E1.00000 F1800.000
G1 X86.845 Y116.689 E1.01462 F378.000
G1 X87.119 Y117.046 E1.02923
G1 X87.360 Y117.425 E1.04385
G1 X87.568 Y117.823 E1.05847
G1 X87.740 Y118.238 E1.07309
G1 X87.875 Y118.667 E1.08771
G1 X87.968 Y119.087 E1.10169
G1 X88.031 Y119.551 E1.11694
G1 X88.050 Y120.000 E1.13156
G1 X88.031 Y120.449 E1.14618
G1 X87.972 Y120.894 E1.16080
G1 X87.875 Y121.333 E1.17542
G1 X87.740 Y121.762 E1.19004
G1 X87.568 Y122.177 E1.20465
G1 X87.360 Y122.575 E1.21927
G1 X87.119 Y122.954 E1.23389
G1 X86.845 Y123.311 E1.24851
G1 X86.542 Y123.642 E1.26313
G1 X86.211 Y123.945 E1.27775
G1 X85.854 Y124.219 E1.29236
G1 X85.475 Y124.460 E1.30698
G1 X85.059 Y124.675 E1.32223
G1 X84.661 Y124.840 E1.33622
G1 X84.233 Y124.975 E1.35083
G1 X83.794 Y125.072 E1.36545
G1 X83.349 Y125.131 E1.38007
G1 X82.900 Y125.150 E1.39469
G1 X82.451 Y125.131 E1.40931
G1 X82.006 Y125.072 E1.42393
G1 X81.567 Y124.975 E1.43854
G1 X81.138 Y124.840 E1.45316
G1 X80.723 Y124.668 E1.46778
G1 X80.325 Y124.460 E1.48240
G1 X79.946 Y124.219 E1.49702
G1 X79.589 Y123.945 E1.51164
G1 X79.258 Y123.642 E1.52625
G1 X78.955 Y123.311 E1.54087
G1 X78.681 Y122.954 E1.55549
G1 X78.440 Y122.575 E1.57011
G1 X78.232 Y122.177 E1.58473
G1 X78.060 Y121.761 E1.59935
G1 X77.925 Y121.333 E1.61397
G1 X77.828 Y120.894 E1.62858
G1 X77.769 Y120.449 E1.64320
G1 X77.750 Y120.000 E1.65782
G1 X77.769 Y119.551 E1.67244
G1 X77.828 Y119.106 E1.68706
G1 X77.925 Y118.667 E1.70167
G1 X78.060 Y118.239 E1.71629
G1 X78.232 Y117.823 E1.73091
G1 X78.440 Y117.425 E1.74553
G1 X78.681 Y117.046 E1.76015
G1 X78.955 Y116.689 E1.77477
G1 X79.258 Y116.358 E1.78938
G1 X79.589 Y116.055 E1.80400
G1 X79.946 Y115.781 E1.81862
G1 X80.325 Y115.540 E1.83324
G1 X80.723 Y115.332 E1.84786
G1 X81.139 Y115.160 E1.86248
G1 X81.567 Y115.025 E1.87710
G1 X82.006 Y114.928 E1.89171
G1 X82.451 Y114.869 E1.90633
G1 X82.900 Y114.850 E1.92095
G1 X83.349 Y114.869 E1.93557
G1 X83.794 Y114.928 E1.95019
G1 X84.233 Y115.025 E1.96481
G1 X84.661 Y115.160 E1.97942
G1 X85.077 Y115.332 E1.99404
G1 X85.475 Y115.540 E2.00866
G1 X85.854 Y115.781 E2.02328
G1 X86.211 Y116.055 E2.03790
G1 X86.487 Y116.308 E2.05007
G1 X86.977 Y116.248 F7800.000
G1 X87.256 Y115.644 F7800.000
G1 X87.619 Y116.041 E2.06756 F540.000
G1 X87.946 Y116.467 E2.08504
G1 X88.234 Y116.920 E2.10252
G1 X88.483 Y117.397 E2.12001
G1 X88.688 Y117.893 E2.13749
G1 X88.850 Y118.406 E2.15497
G1 X88.966 Y118.930 E2.17245
G1 X89.036 Y119.463 E2.18994
G1 X89.060 Y120.000 E2.20742
G1 X89.036 Y120.537 E2.22491
G1 X88.966 Y121.070 E2.24239
G1 X88.850 Y121.594 E2.25987
G1 X88.688 Y122.107 E2.27736
G1 X88.483 Y122.603 E2.29484
G1 X88.234 Y123.080 E2.31232
G1 X87.946 Y123.533 E2.32981
G1 X87.619 Y123.959 E2.34729
G1 X87.256 Y124.356 E2.36477
G1 X86.859 Y124.719 E2.38226
G1 X86.433 Y125.046 E2.39974
G1 X85.980 Y125.334 E2.41722
G1 X85.503 Y125.583 E2.43471
G1 X85.007 Y125.788 E2.45219
G1 X84.494 Y125.950 E2.46967
G1 X83.970 Y126.066 E2.48715
G1 X83.437 Y126.136 E2.50464
G1 X82.900 Y126.160 E2.52212
G1 X82.363 Y126.136 E2.53961
G1 X81.830 Y126.066 E2.55709
G1 X81.306 Y125.950 E2.57457
G1 X80.793 Y125.788 E2.59205
G1 X80.297 Y125.583 E2.60953
G1 X79.820 Y125.334 E2.62702
G1 X79.367 Y125.046 E2.64450
G1 X78.941 Y124.719 E2.66199
G1 X78.544 Y124.356 E2.67947
G1 X78.181 Y123.959 E2.69695
G1 X77.854 Y123.533 E2.71444
G1 X77.566 Y123.080 E2.73192
G1 X77.317 Y122.603 E2.74940
G1 X77.112 Y122.107 E2.76688
G1 X76.950 Y121.594 E2.78437
G1 X76.834 Y121.070 E2.80185
G1 X76.764 Y120.537 E2.81933
G1 X76.740 Y120.000 E2.83682
G1 X76.764 Y119.463 E2.85430
G1 X76.834 Y118.930 E2.87179
G1 X76.950 Y118.406 E2.88927
G1 X77.112 Y117.893 E2.90675
G1 X77.317 Y117.397 E2.92423
G1 X77.566 Y116.920 E2.94172
G1 X77.854 Y116.467 E2.95920
G1 X78.181 Y116.041 E2.97668
G1 X78.544 Y115.644 E2.99417
G1 X78.941 Y115.281 E3.01165
G1 X79.367 Y114.954 E3.02913
G1 X79.820 Y114.666 E3.04662
G1 X80.297 Y114.417 E3.06410
G1 X80.793 Y114.212 E3.08158
G1 X81.306 Y114.050 E3.09907
G1 X81.830 Y113.934 E3.11655
G1 X82.363 Y113.864 E3.13403
G1 X82.900 Y113.840 E3.15151
G1 X83.437 Y113.864 E3.16900
G1 X83.970 Y113.934 E3.18648
G1 X84.494 Y114.050 E3.20396
G1 X85.007 Y114.212 E3.22145
G1 X85.503 Y114.417 E3.23893
G1 X85.980 Y114.666 E3.25642
G1 X86.433 Y114.954 E3.27390
G1 X86.859 Y115.281 E3.29138
G1 X87.200 Y115.594 E3.30642
G1 F1800.000 E2.30642
G92 E0
G1 X98.350 Y104.550 F7800.000
G1 E1.00000 F1800.000
G1 X98.350 Y135.450 E2.00534 F378.000
G1 X67.450 Y135.450 E3.01068
G1 X67.450 Y104.550 E4.01601
G1 X98.275 Y104.550 E5.01891
G1 X98.100 Y104.983 F7800.000
G1 X97.411 Y105.489 F7800.000
G1 X97.500 Y105.921 E5.04021 F360.000
G1 X97.500 Y134.079 E6.39939
G1 X97.411 Y134.511 E6.42069
G1 X96.979 Y134.600 E6.44198
G1 X68.821 Y134.600 E7.80116
G1 X68.389 Y134.511 E7.82246
G1 X68.300 Y134.079 E7.84376
G1 X68.300 Y105.921 E9.20294
G1 X68.389 Y105.489 E9.22423
G1 X68.821 Y105.400 E9.24553
G1 X96.979 Y105.400 E10.60471
G1 X97.337 Y105.474 E10.62239
G1 F1800.000 E9.62239
G92 E0
G1 X86.899 Y116.001 F7800.000
G1 E1.00000 F1800.000
G1 X87.232 Y116.365 E1.00934 F360.000
G1 X87.532 Y116.756 E1.01867
G1 X87.797 Y117.173 E1.02801
G1 X88.028 Y117.617 E1.03749
G1 X88.216 Y118.073 E1.04682
G1 X88.362 Y118.536 E1.05601
G1 X88.467 Y119.011 E1.06521
G1 X88.533 Y119.507 E1.07468
G1 X88.555 Y120.000 E1.08402
G1 X88.533 Y120.493 E1.09336
G1 X88.467 Y120.989 E1.10284
G1 X88.362 Y121.464 E1.11203
G1 X88.216 Y121.927 E1.12122
G1 X88.028 Y122.383 E1.13055
G1 X87.797 Y122.827 E1.14003
G1 X87.532 Y123.244 E1.14937
G1 X87.232 Y123.635 E1.15871
G1 X86.899 Y123.999 E1.16804
G1 X86.535 Y124.332 E1.17738
G1 X86.143 Y124.632 E1.18671
G1 X85.727 Y124.897 E1.19605
G1 X85.252 Y125.141 E1.20617
G1 X84.834 Y125.314 E1.21472
G1 X84.371 Y125.460 E1.22391
G1 X83.890 Y125.567 E1.23324
G1 X83.393 Y125.633 E1.24272
G1 X82.900 Y125.655 E1.25206
G1 X82.407 Y125.633 E1.26140
G1 X81.918 Y125.569 E1.27073
G1 X81.436 Y125.462 E1.28007
G1 X80.959 Y125.311 E1.28955
G1 X80.503 Y125.122 E1.29889
G1 X80.073 Y124.897 E1.30807
G1 X79.663 Y124.636 E1.31726
G1 X79.265 Y124.332 E1.32675
G1 X78.907 Y124.004 E1.33594
G1 X78.568 Y123.635 E1.34542
G1 X78.268 Y123.243 E1.35475
G1 X78.003 Y122.827 E1.36409
G1 X77.772 Y122.383 E1.37357
G1 X77.584 Y121.927 E1.38291
G1 X77.438 Y121.464 E1.39209
G1 X77.333 Y120.990 E1.40128
G1 X77.267 Y120.493 E1.41076
G1 X77.245 Y120.000 E1.42010
G1 X77.267 Y119.507 E1.42944
G1 X77.333 Y119.010 E1.43892
G1 X77.438 Y118.536 E1.44811
G1 X77.584 Y118.073 E1.45730
G1 X77.772 Y117.617 E1.46663
G1 X78.003 Y117.173 E1.47612
G1 X78.268 Y116.756 E1.48545
G1 X78.568 Y116.365 E1.49479
G1 X78.901 Y116.001 E1.50412
G1 X79.265 Y115.668 E1.51346
G1 X79.657 Y115.368 E1.52279
G1 X80.073 Y115.103 E1.53213
G1 X80.517 Y114.872 E1.54161
G1 X80.973 Y114.684 E1.55095
G1 X81.436 Y114.538 E1.56014
G1 X81.910 Y114.433 E1.56933
G1 X82.407 Y114.367 E1.57881
G1 X82.900 Y114.345 E1.58814
G1 X83.393 Y114.367 E1.59748
G1 X83.882 Y114.431 E1.60682
G1 X84.364 Y114.538 E1.61615
G1 X84.841 Y114.689 E1.62563
G1 X85.290 Y114.875 E1.63482
G1 X85.734 Y115.107 E1.64430
G1 X86.150 Y115.372 E1.65364
G1 X86.535 Y115.668 E1.66283
G1 X86.843 Y115.951 E1.67074
G1 F1800.000 E0.67074
G92 E0
G1 X83.085 Y90.684 F7800.000
G1 E1.00000 F1800.000
G1 X82.873 Y90.675 E1.00692 F540.000
G1 X82.718 Y90.603 E1.01250
G1 X82.574 Y90.446 E1.01942
G1 X82.516 Y90.285 E1.02497
G1 X82.525 Y90.073 E1.03190
G1 X82.597 Y89.918 E1.03747
G1 X82.718 Y89.797 E1.04301
G1 X82.873 Y89.725 E1.04859
G1 X83.085 Y89.716 E1.05551
G1 X83.246 Y89.774 E1.06107
G1 X83.377 Y89.884 E1.06662
G1 X83.475 Y90.073 E1.07356
G1 X83.490 Y90.243 E1.07911
G1 X83.426 Y90.446 E1.08604
G1 X83.316 Y90.577 E1.09160
G1 X83.158 Y90.666 E1.09751
G1 X83.200 Y91.332 F7800.000
G1 X82.900 Y91.345 E1.10727 F378.000
G1 X82.703 Y91.311 E1.11379
G1 X82.514 Y91.242 E1.12031
G1 X82.340 Y91.142 E1.12684
G1 X82.187 Y91.013 E1.13335
G1 X82.058 Y90.860 E1.13987
G1 X81.958 Y90.686 E1.14639
G1 X81.868 Y90.400 E1.15616
G1 X81.850 Y90.200 E1.16268
G1 X81.889 Y89.903 E1.17244
G1 X81.958 Y89.714 E1.17896
G1 X82.058 Y89.540 E1.18549
G1 X82.187 Y89.387 E1.19200
G1 X82.340 Y89.258 E1.19852
G1 X82.514 Y89.158 E1.20504
G1 X82.800 Y89.068 E1.21481
G1 X83.100 Y89.055 E1.22457
G1 X83.297 Y89.089 E1.23109
G1 X83.486 Y89.158 E1.23761
G1 X83.660 Y89.258 E1.24413
G1 X83.813 Y89.387 E1.25065
G1 X83.942 Y89.540 E1.25717
G1 X84.042 Y89.714 E1.26369
G1 X84.132 Y90.000 E1.27346
G1 X84.150 Y90.200 E1.27998
G1 X84.111 Y90.497 E1.28974
G1 X84.042 Y90.686 E1.29626
G1 X83.942 Y90.860 E1.30278
G1 X83.813 Y91.013 E1.30930
G1 X83.660 Y91.142 E1.31582
G1 X83.486 Y91.242 E1.32234
G1 X83.273 Y91.316 E1.32968
G1 X83.017 Y91.094 F7800.000
G1 F1800.000 E0.32968
G92 E0
G1 X75.484 Y90.285 F7800.000
G1 E1.00000 F1800.000
G1 X75.426 Y90.446 E1.00556 F540.000
G1 X75.316 Y90.577 E1.01111
G1 X75.127 Y90.675 E1.01805
G1 X74.957 Y90.690 E1.02360
G1 X74.792 Y90.646 E1.02916
G1 X74.623 Y90.516 E1.03609
G1 X74.525 Y90.327 E1.04302
G1 X74.510 Y90.157 E1.04858
G1 X74.554 Y89.992 E1.05414
G1 X74.684 Y89.823 E1.06106
G1 X74.873 Y89.725 E1.06800
G1 X75.043 Y89.710 E1.07355
G1 X75.208 Y89.754 E1.07911
G1 X75.377 Y89.884 E1.08604
G1 X75.462 Y90.032 E1.09160
G1 X75.491 Y90.211 E1.09751
G1 X76.132 Y90.400 F7800.000
G1 X76.080 Y90.593 E1.10402 F378.000
G1 X75.996 Y90.775 E1.11055
G1 X75.881 Y90.939 E1.11707
G1 X75.739 Y91.081 E1.12358
G1 X75.486 Y91.242 E1.13335
G1 X75.298 Y91.311 E1.13987
G1 X75.100 Y91.345 E1.14639
G1 X74.900 Y91.345 E1.15291
G1 X74.702 Y91.311 E1.15943
G1 X74.514 Y91.242 E1.16595
G1 X74.261 Y91.081 E1.17572
G1 X74.119 Y90.939 E1.18224
G1 X74.004 Y90.775 E1.18875
G1 X73.889 Y90.498 E1.19852
G1 X73.855 Y90.300 E1.20504
G1 X73.855 Y90.100 E1.21156
G1 X73.889 Y89.902 E1.21808
G1 X74.004 Y89.625 E1.22785
G1 X74.119 Y89.461 E1.23437
G1 X74.261 Y89.319 E1.24088
G1 X74.514 Y89.158 E1.25065
G1 X74.702 Y89.089 E1.25717
G1 X74.900 Y89.055 E1.26369
G1 X75.100 Y89.055 E1.27021
G1 X75.298 Y89.089 E1.27673
G1 X75.486 Y89.158 E1.28325
G1 X75.739 Y89.319 E1.29302
G1 X75.881 Y89.461 E1.29954
G1 X75.996 Y89.625 E1.30605
G1 X76.110 Y89.902 E1.31582
G1 X76.145 Y90.100 E1.32234
G1 X76.142 Y90.325 E1.32968
G1 X75.943 Y90.465 F7800.000
G1 F1800.000 E0.32968
G92 E0
G1 X90.508 Y90.200 F7800.000
G1 E1.00000 F1800.000
G1 X90.554 Y89.992 E1.00693 F540.000
G1 X90.652 Y89.852 E1.01249
G1 X90.792 Y89.754 E1.01805
G1 X90.957 Y89.710 E1.02361
G1 X91.127 Y89.725 E1.02916
G1 X91.316 Y89.823 E1.03610
G1 X91.446 Y89.992 E1.04302
G1 X91.490 Y90.157 E1.04858
G1 X91.475 Y90.327 E1.05414
G1 X91.377 Y90.516 E1.06108
G1 X91.208 Y90.646 E1.06800
G1 X91.043 Y90.690 E1.07356
G1 X90.873 Y90.675 E1.07911
G1 X90.684 Y90.577 E1.08605
G1 X90.574 Y90.446 E1.09161
G1 X90.514 Y90.275 E1.09751
G1 X89.850 Y90.200 F7800.000
G1 X89.889 Y89.903 E1.10727 F378.000
G1 X89.958 Y89.714 E1.11379
G1 X90.058 Y89.540 E1.12032
G1 X90.187 Y89.387 E1.12683
G1 X90.340 Y89.258 E1.13335
G1 X90.514 Y89.158 E1.13987
G1 X90.703 Y89.089 E1.14640
G1 X91.000 Y89.050 E1.15616
G1 X91.297 Y89.089 E1.16592
G1 X91.486 Y89.158 E1.17244
G1 X91.660 Y89.258 E1.17897
G1 X91.813 Y89.387 E1.18548
G1 X91.942 Y89.540 E1.19200
G1 X92.042 Y89.714 E1.19852
G1 X92.111 Y89.903 E1.20504
G1 X92.150 Y90.200 E1.21481
G1 X92.111 Y90.497 E1.22457
G1 X92.042 Y90.686 E1.23109
G1 X91.942 Y90.860 E1.23762
G1 X91.813 Y91.013 E1.24413
G1 X91.660 Y91.142 E1.25065
G1 X91.486 Y91.242 E1.25717
G1 X91.200 Y91.332 E1.26694
G1 X91.000 Y91.350 E1.27346
G1 X90.703 Y91.311 E1.28322
G1 X90.514 Y91.242 E1.28974
G1 X90.340 Y91.142 E1.29627
G1 X90.187 Y91.013 E1.30278
G1 X90.058 Y90.860 E1.30930
G1 X89.958 Y90.686 E1.31582
G1 X89.889 Y90.497 E1.32234
G1 X89.854 Y90.275 E1.32968
G1 X90.116 Y90.061 F7800.000
G1 F1800.000 E0.32968
G92 E0
G1 X98.508 Y90.200 F7800.000
G1 E1.00000 F1800.000
G1 X98.554 Y89.992 E1.00693 F540.000
G1 X98.652 Y89.852 E1.01249
G1 X98.792 Y89.754 E1.01805
G1 X99.000 Y89.708 E1.02498
G1 X99.208 Y89.754 E1.03191
G1 X99.348 Y89.852 E1.03746
G1 X99.446 Y89.992 E1.04302
G1 X99.490 Y90.157 E1.04858
G1 X99.475 Y90.327 E1.05414
G1 X99.377 Y90.516 E1.06107
G1 X99.208 Y90.646 E1.06800
G1 X99.043 Y90.690 E1.07356
G1 X98.873 Y90.675 E1.07911
G1 X98.684 Y90.577 E1.08605
G1 X98.574 Y90.446 E1.09161
G1 X98.514 Y90.275 E1.09751
G1 X97.850 Y90.200 F7800.000
G1 X97.889 Y89.903 E1.10727 F378.000
G1 X97.958 Y89.714 E1.11379
G1 X98.058 Y89.540 E1.12032
G1 X98.187 Y89.387 E1.12683
G1 X98.340 Y89.258 E1.13335
G1 X98.514 Y89.158 E1.13987
G1 X98.703 Y89.089 E1.14640
G1 X99.000 Y89.050 E1.15616
G1 X99.297 Y89.089 E1.16592
G1 X99.486 Y89.158 E1.17244
G1 X99.660 Y89.258 E1.17897
G1 X99.813 Y89.387 E1.18548
G1 X99.942 Y89.540 E1.19200
G1 X100.042 Y89.714 E1.19852
G1 X100.111 Y89.902 E1.20504
G1 X100.150 Y90.200 E1.21481
G1 X100.111 Y90.498 E1.22457
G1 X100.042 Y90.686 E1.23109
G1 X99.942 Y90.860 E1.23762
G1 X99.813 Y91.013 E1.24413
G1 X99.660 Y91.142 E1.25065
G1 X99.486 Y91.242 E1.25717
G1 X99.297 Y91.311 E1.26369
G1 X99.000 Y91.350 E1.27346
G1 X98.703 Y91.311 E1.28322
G1 X98.514 Y91.242 E1.28974
G1 X98.340 Y91.142 E1.29627
G1 X98.187 Y91.013 E1.30278
G1 X98.058 Y90.860 E1.30930
G1 X97.958 Y90.686 E1.31582
G1 X97.889 Y90.497 E1.32234
G1 X97.854 Y90.275 E1.32968
G1 X98.116 Y90.061 F7800.000
G1 F1800.000 E0.32968
G92 E0
G1 X106.508 Y90.200 F7800.000
G1 E1.00000 F1800.000
G1 X106.554 Y89.992 E1.00693 F540.000
G1 X106.652 Y89.852 E1.01249
G1 X106.792 Y89.754 E1.01805
G1 X106.957 Y89.710 E1.02361
G1 X107.127 Y89.725 E1.02916
G1 X107.316 Y89.823 E1.03610
G1 X107.446 Y89.992 E1.04302
G1 X107.490 Y90.157 E1.04858
G1 X107.475 Y90.327 E1.05414
G1 X107.377 Y90.516 E1.06108
G1 X107.208 Y90.646 E1.06800
G1 X107.043 Y90.690 E1.07356
G1 X106.873 Y90.675 E1.07911
G1 X106.684 Y90.577 E1.08605
G1 X106.574 Y90.446 E1.09161
G1 X106.514 Y90.275 E1.09751
G1 X105.850 Y90.200 F7800.000
G1 X105.889 Y89.903 E1.10727 F378.000
G1 X105.958 Y89.714 E1.11379
G1 X106.058 Y89.540 E1.12032
G1 X106.187 Y89.387 E1.12683
G1 X106.340 Y89.258 E1.13335
G1 X106.514 Y89.158 E1.13987
G1 X106.703 Y89.089 E1.14639
G1 X107.000 Y89.050 E1.15616
G1 X107.297 Y89.089 E1.16592
G1 X107.486 Y89.158 E1.17244
G1 X107.660 Y89.258 E1.17897
G1 X107.813 Y89.387 E1.18548
G1 X107.942 Y89.540 E1.19200
G1 X108.042 Y89.714 E1.19852
G1 X108.111 Y89.902 E1.20504
G1 X108.150 Y90.200 E1.21481
G1 X108.111 Y90.497 E1.22457
G1 X108.042 Y90.686 E1.23109
G1 X107.942 Y90.860 E1.23762
G1 X107.813 Y91.013 E1.24413
G1 X107.660 Y91.142 E1.25065
G1 X107.486 Y91.242 E1.25717
G1 X107.297 Y91.311 E1.26370
G1 X107.000 Y91.350 E1.27346
G1 X106.703 Y91.311 E1.28322
G1 X106.514 Y91.242 E1.28974
